!!!!SEGMENT: pl-cz--ii-148--001-002_lessel-franciszek--msza-b-gloria.krn
!!!cenid: 18xx:276
!!!COM: Lessel, Franciszek
!!!COM-rismID: pe30004332
!!!CDT: 1780-1838/12/26
!!!CNT: Polish
!!!OPR: Msza B
!!!OTL: Gloria
!!!OMV: 002
!!!PDT: 1813
!!!AGN: Sacred; Mass
!!!YEC: Copyright 2022 Narodowy Instytut Fryderyka Chopina (https://polishscores.org)
!!!YEM: License CC-BY-4.0 (https://creativecommons.org/licenses/by/4.0)
!!!SMS-siglum: PL-CZ
!!!SMS-shelfmark: II-148
!!!SMS-shelfwork: 001-002 M
!!!NIFC-rismSourceID: 300000720
!!!NIFC-rismChildID: 300000720
!!!NIFC-islandoraID: pl-cz:32451
!!!URL-pdf-islandora: https://repozytorium.nifc.pl/islandora/object/pl-cz%3A32451/datastream/PDF/view
!!!URL-scan: https://polish.musicsources.pl/pl/lokalizacje/galeria/rekopisy/6763/1 @EN{Scan on Polish Music Sources Website} @PL{Skany w portalu Dziedzictwo Muzyki Polskiej w otwartym dostępie}
!!!IIIF:
!!!ONB-nifc: UWAGA: części Mszy: Kyrie, Gloria, Credo, Offertorium, Sanctus, Agnus Dei
!!!AIN: 1 alto 1 bass 1 cbass 1 cello 2 clars 2 cor 1 organ 1 soprn 1 tenor
!!!key: B-
**kern	**fba	**dynam	**kern	**dynam	**kern	**text	**mod-text	**dynam	**mod-dynam	**kern	**text	**mod-text	**dynam	**mod-dynam	**kern	**text	**mod-text	**dynam	**mod-dynam	**kern	**text	**mod-text	**dynam	**mod-dynam	**kern	**dynam	**kern	**dynam	**kern	**dynam	**kern	**dynam
*	*	*	*	*	*group3	*	*	*	*	*group3	*	*	*	*	*group3	*	*	*	*	*group3	*	*	*	*	*group2	*	*group2	*	*group1	*	*group1	*
*part10	*	*	*part9	*	*part8	*	*	*	*	*part7	*	*	*	*	*part6	*	*	*	*	*part5	*	*	*	*	*part4	*	*part3	*	*part2	*	*part1	*
*staff10	*	*	*staff9	*	*staff8	*	*	*	*	*staff7	*	*	*	*	*staff6	*	*	*	*	*staff5	*	*	*	*	*staff4	*	*staff3	*	*staff2	*	*staff1	*
*Iorgan	*	*	*Icbass&Icello	*	*Ibass	*	*	*	*	*Itenor	*	*	*	*	*Ialto	*	*	*	*	*Isoprn	*	*	*	*	*Icor	*	*Icor	*	*Iclars	*	*Iclars	*
*I"Organo	*	*	*I"Basso e Violoncello	*	*I"Basso	*	*	*	*	*I"Tenore	*	*	*	*	*I"Alto	*	*	*	*	*I"Soprano	*	*	*	*	*I"Corno 2do in B	*	*I"Corno 1mo in B	*	*I"Clarinetto 2do in B♭	*	*I"Clarinetto 1mo in B♭	*
*I'org	*	*	*I'cb e vlc	*	*I'B	*	*	*	*	*I'T	*	*	*	*	*I'A	*	*	*	*	*I'S	*	*	*	*	*I'cor 2	*	*I'cor 1	*	*I'cl 2	*	*I'cl 1	*
*ICklav	*	*	*ICstr	*	*ICvox	*	*	*	*	*ICvox	*	*	*	*	*ICvox	*	*	*	*	*ICvox	*	*	*	*	*ICbras	*	*ICbras	*	*ICww	*	*ICww	*
*IGcont	*	*	*	*	*IGcoro	*	*	*	*	*IGcoro	*	*	*	*	*IGcoro	*	*	*	*	*IGcoro	*	*	*	*	*	*	*	*	*	*	*	*
*	*	*	*mI"Contrabasso e Violoncello	*	*	*	*	*	*	*	*	*	*	*	*	*	*	*	*	*	*	*	*	*	*mI"Corno II in Bb	*	*mI"Corno I in Bb	*	*mI"Clarinetto II in Bb	*	*mI"Clarinetto I in Bb	*
*clefF4	*	*	*clefF4	*	*clefF4	*	*	*	*	*clefC4	*	*	*	*	*clefC3	*	*	*	*	*clefC1	*	*	*	*	*clefG2	*	*clefG2	*	*clefG2	*	*clefG2	*
*	*	*	*	*	*	*	*	*	*	*mclefGv2	*	*	*	*	*mclefG2	*	*	*	*	*mclefG2	*	*	*	*	*	*	*	*	*	*	*	*
*	*	*	*	*	*	*	*	*	*	*	*	*	*	*	*	*	*	*	*	*	*	*	*	*	*ITrd1c2	*	*ITrd1c2	*	*ITrd1c2	*	*ITrd1c2	*
*k[b-e-]	*	*	*k[b-e-]	*	*k[b-e-]	*	*	*	*	*k[b-e-]	*	*	*	*	*k[b-e-]	*	*	*	*	*k[b-e-]	*	*	*	*	*k[b-e-]	*	*k[b-e-]	*	*k[b-e-]	*	*k[b-e-]	*
*B-:	*	*	*B-:	*	*B-:	*	*	*	*	*B-:	*	*	*	*	*B-:	*	*	*	*	*B-:	*	*	*	*	*B-:	*	*B-:	*	*B-:	*	*B-:	*
*M4/4	*	*	*M4/4	*	*M4/4	*	*	*	*	*M4/4	*	*	*	*	*M4/4	*	*	*	*	*M4/4	*	*	*	*	*M4/4	*	*M4/4	*	*M4/4	*	*M4/4	*
*met(c)	*	*	*met(c)	*	*met(c)	*	*	*	*	*met(c)	*	*	*	*	*met(c)	*	*	*	*	*met(c)	*	*	*	*	*met(c)	*	*met(c)	*	*met(c)	*	*met(c)	*
*mmet(c)	*	*	*mmet(c)	*	*mmet(c)	*	*	*	*	*mmet(c)	*	*	*	*	*mmet(c)	*	*	*	*	*mmet(c)	*	*	*	*	*mmet(c)	*	*mmet(c)	*	*mmet(c)	*	*mmet(c)	*
=1	=1	=1	=1	=1	=1	=1	=1	=1	=1	=1	=1	=1	=1	=1	=1	=1	=1	=1	=1	=1	=1	=1	=1	=1	=1	=1	=1	=1	=1	=1	=1	=1
*xywh-#56:7811,3579,4930,795	*	*	*xywh-#28:2309,3708,4834,1200	*	*xywh-#22:7496,252,5304,1167	*	*	*	*	*xywh-#16:2220,5307,4971,931	*	*	*	*	*xywh-#10:7536,430,5167,1030	*	*	*	*	*xywh-#4:7508,369,5050,989	*	*	*	*	*xywh-#44:2412,1483,6631,1007	*	*xywh-#42:2398,1642,6603,979	*	*xywh-#38:2361,2849,6720,779	*	*xywh-#34:2442,3018,6563,991	*
*2\right	*	*	*2\right	*	*2\right	*	*	*	*	*2\right	*	*	*	*	*2\right	*	*	*	*	*2\right	*	*	*	*	*2\right	*	*2\right	*	*2\right	*	*2\right	*
!LO:TX:a:i:t=Andante:mod=	!	!	!LO:TX:a:i:t=Andante:mod=	!LO:MO:null:mod=f	!LO:TX:a:i:t=Andante:mod=	!	!	!LO:DY:rj:a	!LO:DY:rj:a	!LO:TX:a:i:t=Andante:mod=	!	!	!	!	!LO:TX:a:i:t=Andante:mod=	!	!	!LO:DY:rj	!LO:DY:rj	!LO:TX:a:i:t=Andante:mod=	!	!	!	!	!LO:TX:a:i:t=Andante:mod=	!	!LO:TX:a:i:t=Andante:mod=	!	!LO:TX:a:i:t=Andante:mod=	!	!LO:TX:a:i:t=Andante:mod=	!
4BB-/	3	f	4BB-/	.	2B-\	Chwa-	Chwa-	f	f	2d\	Chwa-	Chwa-	f	f	2f\	Chwa-	Chwa-	f	f	2b-\	Chwa-	Chwa-	f	f	00r	.	00r	.	00r	.	00r	.
!	!	!	!	!LO:DY:b	!	!	!	!	!	!	!	!	!	!	!	!	!	!	!	!	!	!	!	!	!	!	!	!	!	!	!	!
!	!	!	!	!LO:MO:null:mod=.	!	!	!	!	!	!	!	!	!	!	!	!	!	!	!	!	!	!	!	!	!	!	!	!	!	!	!	!
4B-\	.	.	4B-\	f	.	.	.	.	.	.	.	.	.	.	.	.	.	.	.	.	.	.	.	.	.	.	.	.	.	.	.	.
!	!	!	!	!	!	!	!	!	!	!	!	!	!	!	!	!	!	!	!	!	!	!	!	!	!LO:TX:a:mod=:t=12	!	!LO:TX:a:mod=:t=12	!	!LO:TX:a:mod=:t=12	!	!LO:TX:a:mod=:t=12	!
4A\	.	.	4A\	.	4A\	-ła	-ła	.	.	4c\	-ła	-ła	.	.	4f\	-ła	-ła	.	.	4f\	-ła	-ła	.	.	.	.	.	.	.	.	.	.
4G\	3	.	4G\	.	4G\	ci	ci	.	.	4B-\	ci	ci	.	.	4f\	ci	ci	.	.	4b-\	Ci	Ci	.	.	.	.	.	.	.	.	.	.
=2	=2	=2	=2	=2	=2	=2	=2	=2	=2	=2	=2	=2	=2	=2	=2	=2	=2	=2	=2	=2	=2	=2	=2	=2	=2	=2	=2	=2	=2	=2	=2	=2
4F#X\	6	.	4F#X\	.	2D\	Bo-	Bo-	.	.	2A\	Bo-	Bo-	.	.	2f#X\	Bo-	Bo-	.	.	2dd\	Bo-	Bo-	.	.	.	.	.	.	.	.	.	.
4D\	.	.	4D\	.	.	.	.	.	.	.	.	.	.	.	.	.	.	.	.	.	.	.	.	.	.	.	.	.	.	.	.	.
4En\	.	.	4En\	.	4D\	-że	-że	.	.	4d\	-że	-że	.	.	4f#\	-że	-że	.	.	4a\	-że	-że	.	.	.	.	.	.	.	.	.	.
4F#\	.	.	4F#X\	.	4D\	na	na	.	.	4d\	na	na	.	.	4f#\	na	na	.	.	4a\	na	na	.	.	.	.	.	.	.	.	.	.
=3	=3	=3	=3	=3	=3	=3	=3	=3	=3	=3	=3	=3	=3	=3	=3	=3	=3	=3	=3	=3	=3	=3	=3	=3	=3	=3	=3	=3	=3	=3	=3	=3
4G\	.	.	4G\	.	4G\	wy-	wy-	.	.	4d\	wy-	wy-	.	.	4g\	wy-	wy-	.	.	4b-\	wy-	wy-	.	.	.	.	.	.	.	.	.	.
4A\	6	.	4A\	.	(4F\	-so-	-so-	.	.	(4e-\	-so-	-so-	.	.	(4a\	-so-	-so-	.	.	(4cc\	-so-	-so-	.	.	.	.	.	.	.	.	.	.
4B-\	.	.	4B-\	.	4B-\)	.	.	.	.	4d\)	.	.	.	.	4b-\)	.	.	.	.	4dd\)	.	.	.	.	.	.	.	.	.	.	.	.
4BB-/	4n 3-	.	4BB-/	.	4B-\	-kim	-kim	.	.	4d-X\	-kim	-kim	.	.	4g\	-kim	-kim	.	.	4een\	-kim	-kim	.	.	.	.	.	.	.	.	.	.
=4	=4	=4	=4	=4	=4	=4	=4	=4	=4	=4	=4	=4	=4	=4	=4	=4	=4	=4	=4	=4	=4	=4	=4	=4	=4	=4	=4	=4	=4	=4	=4	=4
*	*	*	*	*	*xywh-#22:7575,1146,5108,782	*	*	*	*	*	*	*	*	*	*	*	*	*	*	*	*	*	*	*	*	*	*	*	*	*	*	*
!	!	!	!	!	!LO:PB:g=original	!	!	!	!	!	!	!	!	!	!	!	!	!	!	!	!	!	!	!	!	!	!	!	!	!	!	!
4AA/	6	.	4AA/	.	2A\	Nie-	Nie-	.	.	2c\	Nie-	Nie-	.	.	1f\	Nie-	Nie-	.	.	1ff\	Nie-	Nie-	.	.	.	.	.	.	.	.	.	.
8C/L	.	.	8C/L	.	.	.	.	.	.	.	.	.	.	.	.	.	.	.	.	.	.	.	.	.	.	.	.	.	.	.	.	.
8F/J	.	.	8F/J	.	.	.	.	.	.	.	.	.	.	.	.	.	.	.	.	.	.	.	.	.	.	.	.	.	.	.	.	.
4A\	.	.	4A\	.	4F\	-bie	-bie	.	.	4c\	-bie	-bie	.	.	.	.	.	.	.	.	.	.	.	.	.	.	.	.	.	.	.	.
4c\	4 3	.	4c\	.	4E-\	a	a	.	.	4A\	a	a	.	.	.	.	.	.	.	.	.	.	.	.	.	.	.	.	.	.	.	.
=5	=5	=5	=5	=5	=5	=5	=5	=5	=5	=5	=5	=5	=5	=5	=5	=5	=5	=5	=5	=5	=5	=5	=5	=5	=5	=5	=5	=5	=5	=5	=5	=5
*xywh-#56:7871,4156,4854,773	*	*	*	*	*	*	*	*	*	*xywh-#16:2282,5949,5049,837	*	*	*	*	*xywh-#10:7594,1233,4867,795	*	*	*	*	*	*	*	*	*	*	*	*	*	*	*	*	*
!LO:PB:g=original	!	!	!	!	!	!	!	!	!	!LO:PB:g=original	!	!	!	!	!LO:PB:g=original	!	!	!	!	!	!	!	!	!	!	!	!	!	!	!	!	!
4d\	6	.	4d\	.	(2D/	po-	po-	.	.	(4B-\	po-	po-	.	.	1f\	.	.	.	.	1ff\	.	.	.	.	00r	.	00r	.	00r	.	00r	.
4D\	.	.	4D\	.	.	.	.	.	.	4F/)	.	.	.	.	.	.	.	.	.	.	.	.	.	.	.	.	.	.	.	.	.	.
4C\	5 3	.	4C\	.	4C/)	.	.	.	.	4G/	-kóy	-kój	.	.	.	.	.	.	.	.	.	.	.	.	.	.	.	.	.	.	.	.
4c\	6	.	4c\	.	4C/	-kóy	-kój	.	.	4A/	a	a	.	.	.	.	.	.	.	.	.	.	.	.	.	.	.	.	.	.	.	.
=6	=6	=6	=6	=6	=6	=6	=6	=6	=6	=6	=6	=6	=6	=6	=6	=6	=6	=6	=6	=6	=6	=6	=6	=6	=6	=6	=6	=6	=6	=6	=6	=6
*	*	*	*	*	*	*	*	*	*	*	*	*	*	*	*	*	*	*	*	*xywh-#4:7599,1197,4947,646	*	*	*	*	*	*	*	*	*	*	*	*
!	!	!	!	!	!	!	!	!	!	!	!	!	!	!	!	!	!	!	!	!LO:PB:g=original	!	!	!	!	!	!	!	!	!	!	!	!
4B-\	.	.	4B-\	.	2BB-/	lu-	lu-	.	.	(4B-\	po-	po-	.	.	1f\	.	.	.	.	1ff\	.	.	.	.	.	.	.	.	.	.	.	.
4BB-\	.	.	4BB-/	.	.	.	.	.	.	2d\)	.	.	.	.	.	.	.	.	.	.	.	.	.	.	.	.	.	.	.	.	.	.
4AA\	6	.	4AA/	.	4AA/	-dziom	-dziom	.	.	.	.	.	.	.	.	.	.	.	.	.	.	.	.	.	.	.	.	.	.	.	.	.
4A\	.	.	4A\	.	4AA/	cnot-	cnot-	.	.	4c\	-kóy	-kój	.	.	.	.	.	.	.	.	.	.	.	.	.	.	.	.	.	.	.	.
=7	=7	=7	=7	=7	=7	=7	=7	=7	=7	=7	=7	=7	=7	=7	=7	=7	=7	=7	=7	=7	=7	=7	=7	=7	=7	=7	=7	=7	=7	=7	=7	=7
*	*	*	*xywh-#28:2212,4667,5075,743	*	*	*	*	*	*	*	*	*	*	*	*	*	*	*	*	*	*	*	*	*	*	*	*	*	*	*	*	*
!	!	!	!LO:PB:g=original	!	!	!	!	!	!	!	!	!	!	!	!	!	!	!	!	!	!	!	!	!	!	!	!	!	!	!	!	!
!	!	!	!	!	!	!	!	!	!	!	!	!	!	!	!	!	!	!	!	!LO:N:vis=2	!	!	!	!	!	!	!	!	!	!	!	!
4G\	7_ 3	.	4G\	.	(4GG/	-li-	-li-	.	.	(4B-\	lu-	lu-	.	.	1f\	.	.	.	.	1ff\	.	.	.	.	.	.	.	.	.	.	.	.
4B-\	x 3	.	4B-\	.	4BB-/)	.	.	.	.	4G\)	.	.	.	.	.	.	.	.	.	.	.	.	.	.	.	.	.	.	.	.	.	.
4A\	x 3	.	4A\	.	4AA/	-wym	-wym	.	.	4c\	-dziom	-dziom	.	.	.	.	.	.	.	.	.	.	.	.	.	.	.	.	.	.	.	.
4G\	x 3	.	4G\	.	4GG/	na	na	.	.	4B-\	cnot-	cnot-	.	.	.	.	.	.	.	.	.	.	.	.	.	.	.	.	.	.	.	.
=8	=8	=8	=8	=8	=8	=8	=8	=8	=8	=8	=8	=8	=8	=8	=8	=8	=8	=8	=8	=8	=8	=8	=8	=8	=8	=8	=8	=8	=8	=8	=8	=8
4F\	n	.	4F\	.	1FF/	zie-	Zie-	.	.	(4A/	-li-	-li-	.	.	2f\	-bie	-bie	.	.	2ff\	-bie	-bie	.	.	.	.	.	.	.	.	.	.
8C/L	.	.	8C/L	.	.	.	.	.	.	4G/)	.	.	.	.	.	.	.	.	.	.	.	.	.	.	.	.	.	.	.	.	.	.
8AA/J	.	.	8AA/J	.	.	.	.	.	.	.	.	.	.	.	.	.	.	.	.	.	.	.	.	.	.	.	.	.	.	.	.	.
4FF/	.	.	4FF/	.	.	.	.	.	.	4F/	-wym	-wym	.	.	4r	.	.	.	.	4r	.	.	.	.	.	.	.	.	.	.	.	.
4F\	7	.	4F\	.	.	.	.	.	.	4F/	na	na	.	.	4cc\	a	a	.	.	4ee-\	a	a	.	.	.	.	.	.	.	.	.	.
=9	=9	=9	=9	=9	=9	=9	=9	=9	=9	=9	=9	=9	=9	=9	=9	=9	=9	=9	=9	=9	=9	=9	=9	=9	=9	=9	=9	=9	=9	=9	=9	=9
!LO:TX:b:i:t=Ped:mod=	!	!	!	!	!	!	!	!	!	!	!	!	!	!	!	!	!	!	!	!	!	!	!	!	!	!	!	!	!	!	!	!
2F\	6 4	.	2F\	.	1FF/	.	.	.	.	1F/	zie-	Zie-	.	.	(4b-\	po-	po-	.	.	2dd\	po-	po-	.	.	00r	.	00r	.	00r	.	00r	.
.	.	.	.	.	.	.	.	.	.	.	.	.	.	.	4f\)	.	.	.	.	.	.	.	.	.	.	.	.	.	.	.	.	.
4FF/	5 3	.	4FF/	.	.	.	.	.	.	.	.	.	.	.	(4g\	-kóy	-kój	.	.	2cc\	-kóy	-kój	.	.	.	.	.	.	.	.	.	.
4F\	.	.	4F\	.	.	.	.	.	.	.	.	.	.	.	4a\)	.	.	.	.	.	.	.	.	.	.	.	.	.	.	.	.	.
=10	=10	=10	=10	=10	=10	=10	=10	=10	=10	=10	=10	=10	=10	=10	=10	=10	=10	=10	=10	=10	=10	=10	=10	=10	=10	=10	=10	=10	=10	=10	=10	=10
*	*	*	*	*	*xywh-#22:7620,1687,5173,769	*	*	*	*	*xywh-#16:2321,6490,4963,1064	*	*	*	*	*	*	*	*	*	*	*	*	*	*	*	*	*	*	*	*	*	*
!	!	!	!	!	!LO:PB:g=original	!	!	!	!	!LO:PB:g=original	!	!	!	!	!	!	!	!	!	!	!	!	!	!	!	!	!	!	!	!	!	!
2F\	9 6 4	.	2F\	.	1FF/	.	.	.	.	1F/	.	.	.	.	(4g\	Lu-	lu-	.	.	2b-\	lu-	lu-	.	.	.	.	.	.	.	.	.	.
.	.	.	.	.	.	.	.	.	.	.	.	.	.	.	4d\)	.	.	.	.	.	.	.	.	.	.	.	.	.	.	.	.	.
4FF/	8 5 3	.	4FF/	.	.	.	.	.	.	.	.	.	.	.	4en\	-dziom	-dziom	.	.	4a\	-dziom	-dziom	.	.	.	.	.	.	.	.	.	.
4F\	.	.	4F\	.	.	.	.	.	.	.	.	.	.	.	4f\	cnot-	cnot-	.	.	4a\	cno-	cno-	.	.	.	.	.	.	.	.	.	.
=11	=11	=11	=11	=11	=11	=11	=11	=11	=11	=11	=11	=11	=11	=11	=11	=11	=11	=11	=11	=11	=11	=11	=11	=11	=11	=11	=11	=11	=11	=11	=11	=11
2F\	7 2	.	2F\	.	1FF/	.	.	.	.	1F/	.	.	.	.	(4en\	-li-	-li-	.	.	(4g\	-tli-	-tli-	.	.	.	.	.	.	.	.	.	.
.	.	.	.	.	.	.	.	.	.	.	.	.	.	.	4d\)	.	.	.	.	4b-\)	.	.	.	.	.	.	.	.	.	.	.	.
2FF/	8 3	.	2FF/	.	.	.	.	.	.	.	.	.	.	.	4c\	-wym	-wym	.	.	4a\	-wym	-wym	.	.	.	.	.	.	.	.	.	.
.	7 2	.	.	.	.	.	.	.	.	.	.	.	.	.	4B-\	na	na	.	.	4g\	na	na	.	.	.	.	.	.	.	.	.	.
=12	=12	=12	=12	=12	=12	=12	=12	=12	=12	=12	=12	=12	=12	=12	=12	=12	=12	=12	=12	=12	=12	=12	=12	=12	=12	=12	=12	=12	=12	=12	=12	=12
*xywh-#56:7914,4718,4799,691	*	*	*	*	*	*	*	*	*	*	*	*	*	*	*xywh-#10:7647,1761,4828,795	*	*	*	*	*	*	*	*	*	*	*	*	*	*	*	*	*
!LO:PB:g=original	!	!	!	!	!	!	!	!	!	!	!	!	!	!	!LO:PB:g=original	!	!	!	!	!	!	!	!	!	!	!	!	!	!	!	!	!
2F\	8 3	.	2F\	.	2.FF/	.	.	.	.	2F/	-mi	-mi	.	.	2A/	zie-	Zie-	.	.	2f/	Zie-	Zie-	.	.	.	.	.	.	.	.	.	.
2r	.	.	2r	.	.	.	.	.	.	2r	.	.	.	.	4A/	-mi	-mi	.	.	4f/	-mi	-mi	.	.	.	.	.	.	.	.	.	.
.	.	.	.	.	8AA/L	.	.	.	.	.	.	.	.	.	4r	.	.	.	.	4r	.	.	.	.	.	.	.	.	.	.	.	.
.	.	.	.	.	8GG/J	.	.	.	.	.	.	.	.	.	.	.	.	.	.	.	.	.	.	.	.	.	.	.	.	.	.	.
=13	=13	=13	=13	=13	=13	=13	=13	=13	=13	=13	=13	=13	=13	=13	=13	=13	=13	=13	=13	=13	=13	=13	=13	=13	=13	=13	=13	=13	=13	=13	=13	=13
*	*	*	*	*	*	*	*	*	*	*	*	*	*	*	*	*	*	*	*	*xywh-#4:7663,1708,4869,724	*	*	*	*	*	*	*	*	*	*	*	*
!	!	!	!	!	!	!	!	!	!	!	!	!	!	!	!	!	!	!	!	!LO:PB:g=original	!	!	!	!	!	!	!	!	!	!	!	!
1r;	.	.	1r;	.	2FF;/	-mi	-mi	.	.	1r;	.	.	.	.	1r;	.	.	.	.	1r;	.	.	.	.	1r;	.	1r;	.	1r;	.	1r;	.
!	!	!	!	!	!	!	!	!	!	!	!	!	!	!	!	!	!	!	!	!	!	!	!	!	!	!LO:MO:null:mod=.	!	!	!	!	!	!
.	.	.	.	.	2r;	.	.	.	.	.	.	.	.	.	.	.	.	.	.	.	.	.	.	.	.	f	.	.	.	.	.	.
=14	=14	=14	=14	=14	=14	=14	=14	=14	=14	=14	=14	=14	=14	=14	=14	=14	=14	=14	=14	=14	=14	=14	=14	=14	=14	=14	=14	=14	=14	=14	=14	=14
!	!	!	!	!	!	!	!	!	!	!	!	!	!	!	!	!	!	!	!	!	!	!	!	!	!	!	!	!	!	!	!	!LO:MO:null:mod=!LO&colon;DY&colon;ed=brack
!	!	!	!	!	!	!	!	!	!	!	!	!	!	!	!	!	!	!	!	!	!	!	!	!	!	!	!	!	!	!	!	!
!	!	!	!	!	!	!	!	!	!	!	!	!	!	!	!	!	!	!	!	!	!	!	!	!	!	!LO:MO:null:mod=f	!	!	!	!	!	!LO:MO:null:mod=f
4B-\	10	.	4B-\	.	2BB-/	Cie-	Cie-	.	.	2B-\	Cie-	Cie-	.	.	2f\	Cie-	Cie-	.	.	2dd\	Cie-	Cie-	f	.	2B-/	.	2.b-\	f	2f/	f	2dd\	.
8BB-/L	_	.	8BB-/L	.	.	.	.	.	.	.	.	.	.	.	.	.	.	.	.	.	.	.	.	.	.	.	.	.	.	.	.	.
8C/J	.	.	8C/J	.	.	.	.	.	.	.	.	.	.	.	.	.	.	.	.	.	.	.	.	.	.	.	.	.	.	.	.	.
4D\	.	.	4D/	.	4D/	-bie	-bie	.	.	4B-\	-bie	-bie	.	.	4f\	-bie	-bie	.	.	4b-\	-bie	-bie	.	.	4d/	.	.	.	4d/	.	4b-\	.
4BB-/	.	.	4BB-/	.	4BB-/	wiel-	wiel-	.	.	4B-\	wiel-	wiel-	.	.	4f\	wiel-	wiel-	.	.	4dd\	wiel-	wiel-	.	.	4B-/	.	4b-\	.	4f/	.	4dd\	.
=15	=15	=15	=15	=15	=15	=15	=15	=15	=15	=15	=15	=15	=15	=15	=15	=15	=15	=15	=15	=15	=15	=15	=15	=15	=15	=15	=15	=15	=15	=15	=15	=15
.	.	.	.	.	.	.	.	.	.	.	.	.	.	.	.	.	.	.	.	4qqdd/	.	.	.	.	.	.	.	.	.	.	4qqdd/	.
4F\	7	.	4F\	.	2F\	-bie-	-bi-	.	.	2A\	-bie-	-bi-	.	.	2e-\	-bie-	-bi-	.	.	2cc\	-bie-	-bi-	.	.	2f/	.	(2cc\	.	2e-/	.	2cc\	.
4FF/	.	.	4FF/	.	.	.	.	.	.	.	.	.	.	.	.	.	.	.	.	.	.	.	.	.	.	.	.	.	.	.	.	.
2BB-/	3	.	2BB-/	.	2BB-/	-my	-my	.	.	2B-\	-my	-my	.	.	2d\	-my	-my	.	.	2b-\	-my	-my	.	.	2d/	.	2b-\)	.	2d/	.	2b-\	.
=16	=16	=16	=16	=16	=16	=16	=16	=16	=16	=16	=16	=16	=16	=16	=16	=16	=16	=16	=16	=16	=16	=16	=16	=16	=16	=16	=16	=16	=16	=16	=16	=16
*	*	*	*xywh-#28:2225,5202,4899,737	*	*	*	*	*	*	*	*	*	*	*	*	*	*	*	*	*	*	*	*	*	*	*	*	*	*	*	*	*
!	!	!	!LO:PB:g=original	!	!	!	!	!	!	!	!	!	!	!	!	!	!	!	!	!	!	!	!	!	!	!	!	!	!	!	!	!
4BB-/	.	.	4BB-/	.	4BB-/	bło-	bło-	.	.	4B-\	bło-	bło-	.	.	4d\	bło-	bło-	.	.	4.b-\	bło-	bło-	.	.	4r	.	4r	.	4r	.	4r	.
4B-\	.	.	4B-\	.	4B-\	-go-	-go-	.	.	4d\	-go-	-go-	.	.	4b-\	-go-	-go-	.	.	.	.	.	.	.	4B-/	.	4b-\	.	4d/	.	4b-\	.
.	.	.	.	.	.	.	.	.	.	.	.	.	.	.	.	.	.	.	.	8b-\	-go-	-go-	.	.	.	.	.	.	.	.	.	.
*	*	*	*	*	*xywh-#22:7542,2203,5199,769	*	*	*	*	*	*	*	*	*	*	*	*	*	*	*	*	*	*	*	*	*	*	*	*	*	*	*
!	!	!	!	!	!LO:PB:g=original	!	!	!	!	!	!	!	!	!	!	!	!	!	!	!	!	!	!	!	!	!	!	!	!	!	!	!
4A\	6	.	4A\	.	4A\	-ſła-	-ſła-	.	.	4e-\	-sła-	-sła-	.	.	4.b-\	-sła-	-sła-	.	.	4cc\	-ſła-	-ſła-	.	.	4B-/	.	4b-\	.	4e-/	.	4cc\	.
4A-X\	2	.	4A-X\	.	4A-X\	-wiem	-wim	.	.	4f\	-wiem	-wim	.	.	.	.	.	.	.	4dd\	-wiem	-wim	.	.	4B-/	.	4b-\	.	4f/	.	4dd\	.
.	.	.	.	.	.	.	.	.	.	.	.	.	.	.	8b-\	-wiem	-wim	.	.	.	.	.	.	.	.	.	.	.	.	.	.	.
=17	=17	=17	=17	=17	=17	=17	=17	=17	=17	=17	=17	=17	=17	=17	=17	=17	=17	=17	=17	=17	=17	=17	=17	=17	=17	=17	=17	=17	=17	=17	=17	=17
*	*	*	*	*	*	*	*	*	*	*xywh-#16:7583,312,5182,1127	*	*	*	*	*	*	*	*	*	*	*	*	*	*	*	*	*	*	*	*	*	*
!	!	!	!	!	!	!	!	!	!	!LO:LB:g=original	!	!	!	!	!	!	!	!	!	!	!	!	!	!	!	!	!	!	!	!	!	!
2G\	6	.	2G\	.	2G\	cie-	Cie-	.	.	2.e-\	cie-	Cie-	.	.	2b-\	cie-	Cie-	.	.	2ee-\	Cie-	Cie-	.	.	2B-/	.	2b-\	.	2g/	.	2ee-\	.
2r	.	.	2r	.	2G\	-bie	-bie	.	.	.	.	.	.	.	2b-\	-bie	-bie	.	.	4e-/	-bie	-bie	.	.	2r	.	2r	.	2r	.	2r	.
.	.	.	.	.	.	.	.	.	.	4e-\	-bie	-bie	.	.	.	.	.	.	.	4r	.	.	.	.	.	.	.	.	.	.	.	.
=18	=18	=18	=18	=18	=18	=18	=18	=18	=18	=18	=18	=18	=18	=18	=18	=18	=18	=18	=18	=18	=18	=18	=18	=18	=18	=18	=18	=18	=18	=18	=18	=18
*	*	*	*	*	*	*	*	*	*	*	*	*	*	*	*xywh-#10:7666,2303,4801,809	*	*	*	*	*	*	*	*	*	*	*	*	*	*	*	*	*
!	!	!	!	!	!	!	!	!	!	!	!	!	!	!	!LO:PB:g=original	!	!	!	!	!	!	!	!	!	!	!	!	!	!	!	!	!
4r	10	.	4r	.	4r	.	.	.	.	2e-\	to-	To-	.	.	4r	.	.	.	.	2gg\	To-	To-	.	.	00r	.	00r	.	1b-\	.	(2gg\	.
4E-\	.	.	4E-\	.	4E-\	To-	To-	.	.	.	.	.	.	.	4b-\	To-	To-	.	.	.	.	.	.	.	.	.	.	.	.	.	.	.
!	!	!	!	!	!	!	!	!	!	!	!	!	!	!	!	!	!	!	!	!	!	!	!	!	!LO:TX:a:mod=:t=12	!	!LO:TX:a:mod=:t=12	!	!	!	!	!
4D\	6	.	4D\	.	4BB-/	-bie	-bie	.	.	4d\	-bie	-bie	.	.	4b-\	-bie	-bie	.	.	4ff\	-bie	-bie	.	.	.	.	.	.	.	.	2ff\	.
4BB-/	.	.	4BB-/	.	4BB-/	cześć	cześć	.	.	4d\	cześć	cześć	.	.	4b-\	cześć	cześć	.	.	4ff\	cześć	cześć	.	.	.	.	.	.	.	.	.	.
=19	=19	=19	=19	=19	=19	=19	=19	=19	=19	=19	=19	=19	=19	=19	=19	=19	=19	=19	=19	=19	=19	=19	=19	=19	=19	=19	=19	=19	=19	=19	=19	=19
*xywh-#56:7947,5170,4903,724	*	*	*	*	*	*	*	*	*	*	*	*	*	*	*	*	*	*	*	*xywh-#4:7722,2296,4785,691	*	*	*	*	*	*	*	*	*	*	*	*
!LO:PB:g=original	!	!	!	!	!	!	!	!	!	!	!	!	!	!	!	!	!	!	!	!LO:PB:g=original	!	!	!	!	!	!	!	!	!	!	!	!
4C\	7 n	.	4C\	.	(2C/	nie-	nie-	.	.	2.c\	nie-	nie-	.	.	(2b-\	nie-	nie-	.	.	(2een\	nie-	nie-	.	.	.	.	.	.	2g/	.	2eeX\	.
8D\L	.	.	8D\L	.	.	.	.	.	.	.	.	.	.	.	.	.	.	.	.	.	.	.	.	.	.	.	.	.	.	.	.	.
8En\J	.	.	8En\J	.	.	.	.	.	.	.	.	.	.	.	.	.	.	.	.	.	.	.	.	.	.	.	.	.	.	.	.	.
4F\	n	.	4F\	.	4F\)	.	.	.	.	.	.	.	.	.	4a\)	.	.	.	.	4ee-X\)	-ſiem	.	.	.	.	.	.	.	4a\	.	2ee-\)	.
4AA/	6	.	4AA/	.	4F\	-siem	-siem	.	.	4c\	-Siem	-siem	.	.	4cc\	-ſiem	-ſiem	.	.	4ee-\	.	-siem	.	.	.	.	.	.	4cc\	.	.	.
=20	=20	=20	=20	=20	=20	=20	=20	=20	=20	=20	=20	=20	=20	=20	=20	=20	=20	=20	=20	=20	=20	=20	=20	=20	=20	=20	=20	=20	=20	=20	=20	=20
4BB-/	5	.	4BB-/	.	4B-\	gło-	gło-	.	.	4d\	gło-	gło-	.	.	4b-\	gło-	gło-	.	.	4dd\	gło-	gło-	.	.	.	.	.	.	4b-\	.	4dd\	.
4F\	7	.	4F\	.	4F\	-ſy	-ſy	.	.	4e-\	-sy	-sy	.	.	4a\	-ſy	-ſy	.	.	4cc\	-ſy	-ſy	.	.	.	.	.	.	4a\	.	4cc\	.
4G\	-	.	4G\	.	4G\	złą-	złą-	.	.	4d\	złą-	złą-	.	.	4g\	zlą-	zlą-	.	.	4b-\	złą-	złą-	.	.	.	.	.	.	4b-\	.	4b-\	.
4E-\	6	.	4E-\	.	4E-\	-czo-	-czo-	.	.	4G/	-czo-	-czo-	.	.	4g\	-czo-	-czo-	.	.	4cc\	-czo-	-czo-	.	.	.	.	.	.	4g\	.	4cc\	.
=21	=21	=21	=21	=21	=21	=21	=21	=21	=21	=21	=21	=21	=21	=21	=21	=21	=21	=21	=21	=21	=21	=21	=21	=21	=21	=21	=21	=21	=21	=21	=21	=21
*	*	*	*	*	*xywh-#22:7601,2751,5186,743	*	*	*	*	*	*	*	*	*	*	*	*	*	*	*	*	*	*	*	*	*	*	*	*	*	*	*
!	!	!	!	!	!LO:PB:g=original	!	!	!	!	!	!	!	!	!	!	!	!	!	!	!	!	!	!	!	!	!	!	!	!	!	!	!
2D\	#	.	2D\	.	2D\	-ne-	-ne-	.	.	2A\	-ne-	-ne-	.	.	2f#X\	-ne-	-ne-	.	.	2dd\	-ne-	-ne-	.	.	.	.	.	.	2f#X/	.	2dd\	.
4r	.	.	4r	.	4D\	-mi	-mi	.	.	4A\	-mi	-mi	.	.	4d\	-mi	-mi	.	.	4dd\	-mi	-mi	.	.	.	.	.	.	2r	.	2r	.
!LO:TX:a:i:t=unis	!	!	!	!	!	!	!	!	!	!	!	!	!	!	!	!	!	!	!	!	!	!	!	!	!	!	!	!	!	!	!	!
4D\	.	.	4D\	.	4D\	po-	po-	.	.	4r	.	.	.	.	4r	.	.	.	.	4r	.	.	.	.	.	.	.	.	.	.	.	.
=22	=22	=22	=22	=22	=22	=22	=22	=22	=22	=22	=22	=22	=22	=22	=22	=22	=22	=22	=22	=22	=22	=22	=22	=22	=22	=22	=22	=22	=22	=22	=22	=22
2.E-X\	.	.	2.E-X\	.	2E-\	-tęż-	-tęż-	.	.	2r	.	.	.	.	1r	.	.	.	.	0r	.	.	.	.	00r	.	00r	.	00r	.	00r	.
!	!	!	!	!	!	!	!	!	!	!	!	!	!	!	!LO:TX:a:mod=:t=1	!	!	!	!	!LO:TX:a:mod=:t=2	!	!	!	!	!	!	!	!	!LO:TX:a:mod=:t=6	!	!LO:TX:a:mod=:t=6	!
.	.	.	.	.	4E-\	-ny	-ny	.	.	4r	.	.	.	.	.	.	.	.	.	.	.	.	.	.	.	.	.	.	.	.	.	.
4E-\	.	.	4E-\	.	4E-\	po-	po-	.	.	4E-/	po-	po-	.	.	.	.	.	.	.	.	.	.	.	.	.	.	.	.	.	.	.	.
=23	=23	=23	=23	=23	=23	=23	=23	=23	=23	=23	=23	=23	=23	=23	=23	=23	=23	=23	=23	=23	=23	=23	=23	=23	=23	=23	=23	=23	=23	=23	=23	=23
*	*	*	*	*	*	*	*	*	*	*xywh-#16:7669,1095,5002,900	*	*	*	*	*	*	*	*	*	*	*	*	*	*	*	*	*	*	*	*	*	*
!	!	!	!	!	!	!	!	!	!	!LO:PB:g=original	!	!	!	!	!	!	!	!	!	!	!	!	!	!	!	!	!	!	!	!	!	!
2D\	6	.	2D\	.	2D\	-tęż-	-tęż-	.	.	2B-\	-tęż-	-tęż-	.	.	2r	.	.	.	.	.	.	.	.	.	.	.	.	.	.	.	.	.
2D-X\	_	.	2D-X\	.	2D-X\	-ny	-ny	.	.	4B-\	-ny	-ny	.	.	4r	.	.	.	.	.	.	.	.	.	.	.	.	.	.	.	.	.
.	.	.	.	.	.	.	.	.	.	4B-\	po-	po-	.	.	4B-/	po-	po-	.	.	.	.	.	.	.	.	.	.	.	.	.	.	.
=24	=24	=24	=24	=24	=24	=24	=24	=24	=24	=24	=24	=24	=24	=24	=24	=24	=24	=24	=24	=24	=24	=24	=24	=24	=24	=24	=24	=24	=24	=24	=24	=24
*	*	*	*	*	*	*	*	*	*	*	*	*	*	*	*xywh-#10:7718,2890,4788,737	*	*	*	*	*	*	*	*	*	*	*	*	*	*	*	*	*
!	!	!	!	!	!	!	!	!	!	!	!	!	!	!	!LO:PB:g=original	!	!	!	!	!	!	!	!	!	!	!	!	!	!	!	!	!
2C/	6 3	.	2C/	.	2C/	Bo-	Bo-	.	.	2A\	-tę-	-tę-	.	.	2e-\	-tę-	-tę-	.	.	2r	.	.	.	.	.	.	.	.	.	.	.	.
2C-X/	6-\	.	2C-X/	.	2C-X/	.	.	.	.	[2A-X\	.	.	.	.	4e-\	-żny	-żny	.	.	4r	.	.	.	.	.	.	.	.	.	.	.	.
.	.	.	.	.	.	.	.	.	.	.	.	.	.	.	4e-\	po-	po-	.	.	4e-/	po-	po-	.	.	.	.	.	.	.	.	.	.
=25	=25	=25	=25	=25	=25	=25	=25	=25	=25	=25	=25	=25	=25	=25	=25	=25	=25	=25	=25	=25	=25	=25	=25	=25	=25	=25	=25	=25	=25	=25	=25	=25
*	*	*	*xywh-#28:2284,5724,5010,704	*	*	*	*	*	*	*	*	*	*	*	*	*	*	*	*	*	*	*	*	*	*	*	*	*	*	*	*	*
!	!	!	!LO:PB:g=original	!	!	!	!	!	!	!	!	!	!	!	!	!	!	!	!	!	!	!	!	!	!	!	!	!	!	!	!	!
2BB-/	7 3	.	2BB-/	.	2BB-/	-że	-że	.	.	2A-\]	.	.	.	.	2d\	-tę-	-tę-	.	.	2b-\	-tęż-	-tęż-	.	.	.	.	.	.	.	.	.	.
2B-\	6 3-	.	2B-\	.	4r	.	.	.	.	2G/	-żny	-żny	.	.	[2d-X\	.	.	.	.	4b-\	-ny	-ny	.	.	.	.	.	.	.	.	.	.
.	.	.	.	.	4BB-/	po-	po-	.	.	.	.	.	.	.	.	.	.	.	.	4b-\	po-	po-	.	.	.	.	.	.	.	.	.	.
=26	=26	=26	=26	=26	=26	=26	=26	=26	=26	=26	=26	=26	=26	=26	=26	=26	=26	=26	=26	=26	=26	=26	=26	=26	=26	=26	=26	=26	=26	=26	=26	=26
*xywh-#56:7860,5676,4799,762	*	*	*	*	*	*	*	*	*	*	*	*	*	*	*	*	*	*	*	*xywh-#4:7767,2749,4708,704	*	*	*	*	*	*	*	*	*	*	*	*
!LO:PB:g=original	!	!	!	!	!	!	!	!	!	!	!	!	!	!	!	!	!	!	!	!LO:PB:g=original	!	!	!	!	!	!	!	!	!	!	!	!
2A-X\	3	.	2A-X\	.	2.AA-X/	-tęż-	-tęż-	.	.	2.A-X\	Bo-	Bo-	.	.	2d-X\]	.	.	.	.	2.cc\	-tęż-	-tęż-	.	.	00r	.	00r	.	0r	.	0r	.
!LO:SIC:v:s=4AA-	!	!	!LO:SIC:v:s=4AA-	!	!	!	!	!	!	!	!	!	!	!	!	!	!	!	!	!	!	!	!	!	!	!	!	!	!	!	!	!
4AA/	.	.	4AA/	.	.	.	.	.	.	.	.	.	.	.	2c\	żny	żny	.	.	.	.	.	.	.	.	.	.	.	.	.	.	.
!LO:SIC:v:s=4AA-	!	!	!LO:SIC:v:s=4AA-	!	!	!	!	!	!	!	!	!	!	!	!	!	!	!	!	!	!	!	!	!	!	!	!	!	!	!	!	!
4AA/	.	.	4AA/	.	4AA-/	-ny	-ny	.	.	4f\	-że	-że	.	.	.	.	.	.	.	4cc\	-ny	-ny	.	.	.	.	.	.	.	.	.	.
=27	=27	=27	=27	=27	=27	=27	=27	=27	=27	=27	=27	=27	=27	=27	=27	=27	=27	=27	=27	=27	=27	=27	=27	=27	=27	=27	=27	=27	=27	=27	=27	=27
*	*	*	*	*	*xywh-#22:7627,3247,5049,743	*	*	*	*	*	*	*	*	*	*	*	*	*	*	*	*	*	*	*	*	*	*	*	*	*	*	*
!	!	!	!	!	!LO:PB:g=original	!	!	!	!	!	!	!	!	!	!	!	!	!	!	!	!	!	!	!	!	!	!	!	!	!	!	!
4GG/	9 5 4	.	4GG/	.	(2GG/	Bo-	Bo-	.	.	2a-X\	Bo-	Bo-	.	.	(2c\	Bo-	Bo-	.	.	2ddn\	Bo-	Bo-	.	.	.	.	.	.	.	.	.	.
8BBn/L	_ _ _	.	8BBn/L	.	.	.	.	.	.	.	.	.	.	.	.	.	.	.	.	.	.	.	.	.	.	.	.	.	.	.	.	.
8D/J	.	.	8D/J	.	.	.	.	.	.	.	.	.	.	.	.	.	.	.	.	.	.	.	.	.	.	.	.	.	.	.	.	.
4G\	8 3n	.	4G\	.	4G\)	.	.	.	.	4g\	-że	-że	.	.	4Bn\)	.	.	.	.	2dd\	-że	-że	.	.	.	.	.	.	.	.	.	.
4F\	_ _	.	4F\	.	4G\	-że	-że	.	.	4f\	dla	dla	.	.	4d\	-że	-że	.	.	.	.	.	.	.	.	.	.	.	.	.	.	.
=28	=28	=28	=28	=28	=28	=28	=28	=28	=28	=28	=28	=28	=28	=28	=28	=28	=28	=28	=28	=28	=28	=28	=28	=28	=28	=28	=28	=28	=28	=28	=28	=28
*	*	*	*	*	*	*	*	*	*	*	*	*	*	*	*	*	*	*	*	*	*	*	*	*	*	*	*	*	*xywh-#38:2416,3346,6720,752	*	*	*
!	!	!	!	!	!	!	!	!	!	!	!	!	!	!	!	!	!	!	!	!	!	!	!	!	!	!	!	!	!LO:PB:g=original	!	!	!
4E-\	7 3	.	4E-\	.	2C/	Bo-	Bo-	.	.	2e-\	twey	Twej	.	.	2d\	Bo-	Bo-	.	.	2ee-\	Bo-	Bo-	.	.	.	.	.	.	2r	.	2r	.
4G\	.	.	4G\	.	.	.	.	.	.	.	.	.	.	.	.	.	.	.	.	.	.	.	.	.	.	.	.	.	.	.	.	.
4C/	8 6	.	4C/	.	4C/	-że	-że	.	.	4e-\	wiel-	wiel-	.	.	4c\	-że	-że	.	.	4ee-\	-że	-że	.	.	.	.	.	.	2g/	.	2ee-\	.
4c\	.	.	4c\	.	4C/	dla	dla	.	.	4d\	-kiey	-kiej	.	.	4g\	dla	dla	.	.	4ee-\	dla	dla	.	.	.	.	.	.	.	.	.	.
=29	=29	=29	=29	=29	=29	=29	=29	=29	=29	=29	=29	=29	=29	=29	=29	=29	=29	=29	=29	=29	=29	=29	=29	=29	=29	=29	=29	=29	=29	=29	=29	=29
*	*	*	*	*	*	*	*	*	*	*xywh-#16:7724,1666,4924,798	*	*	*	*	*	*	*	*	*	*	*	*	*	*	*	*	*	*	*	*	*xywh-#34:2449,3750,7055,759	*
!	!	!	!	!	!	!	!	!	!	!LO:PB:g=original	!	!	!	!	!	!	!	!	!	!	!	!	!	!	!	!	!	!	!	!	!LO:PB:g=original	!
4r	6 4n 2#	.	4r	.	2B-\	twey	Twej	.	.	2.c#X\	wiel-	wiel-	.	.	2g\	twey	Twej	.	.	2een\	twey	Twej	.	.	.	.	.	.	2g/	.	1eeX\	.
4B-\	_ _ _	.	4B-\	.	.	.	.	.	.	.	.	.	.	.	.	.	.	.	.	.	.	.	.	.	.	.	.	.	.	.	.	.
*	*	*	*	*	*	*	*	*	*	*	*	*	*	*	*xywh-#10:7634,3393,4938,743	*	*	*	*	*	*	*	*	*	*	*	*	*	*	*	*	*
!	!	!	!	!	!	!	!	!	!	!	!	!	!	!	!LO:PB:g=original	!	!	!	!	!	!	!	!	!	!	!	!	!	!	!	!	!LO:MO:null:mod=<
4A\	#	.	4A\	.	4An\	wiel-	wiel-	.	.	.	.	.	.	.	4a\	wiel-	wiel-	.	.	4ee\	wiel-	wiel-	.	.	.	.	.	.	4a\	<	.	.
!	!	!	!	!	!	!	!	!	!	!	!	!	!	!	!	!	!	!	!	!	!	!	!	!	!	!	!	!	!	!	!	!LO:MO:null:mod=.
4G\	6n 4+ 3	.	4G\	.	4G\	-kiey	-kiej	.	.	4c#\	-kiey	-kiey	.	.	4b-\	-kiej	-kiej	.	.	4ee\	-kiej	-kiej	.	.	.	.	.	.	4b-\	.	.	<
=30	=30	=30	=30	=30	=30	=30	=30	=30	=30	=30	=30	=30	=30	=30	=30	=30	=30	=30	=30	=30	=30	=30	=30	=30	=30	=30	=30	=30	=30	=30	=30	=30
4F\	6 3	.	4F\	.	2F\	chwa-	Chwa-	.	.	(2d\	chwa-	chwa-	.	.	2.a\	chwa-	chwa-	.	.	2.ff\	chwa-	chwa-	.	.	2r	.	2r	.	1a/	.	1ff\	.
8G\L	._ _	.	8G\L	.	.	.	.	.	.	.	.	.	.	.	.	.	.	.	.	.	.	.	.	.	.	.	.	.	.	.	.	.
!	!	!	!	!	!	!	!	!	!	!	!	!	!	!	!	!	!	!	!	!	!	!	!	!	!	!	!	!	!	!LO:MO:null:mod=.	!	!
8F\J	.	.	8F\J	.	.	.	.	.	.	.	.	.	.	.	.	.	.	.	.	.	.	.	.	.	.	.	.	.	.	[	.	.
!	!	!	!	!	!	!	!	!	!	!	!	!	!	!	!	!	!	!	!	!	!	!	!	!	!	!	!	!LO:MO:null:mod=<	!	!	!	!
4En\	.	.	4En\	.	2D\	-ły	-ły	.	.	4en\)	.	.	.	.	.	.	.	.	.	.	.	.	.	.	2dd\	<[	2dd\	.	.	.	.	.
!	!	!	!	!	!	!	!	!	!	!	!	!	!	!	!	!	!	!	!	!	!	!	!	!	!	!	!	!LO:MO:null:mod=[[	!	!LO:MO:null:mod=[[	!	!LO:MO:mod=[[
4D\	.	.	4D\	.	.	.	.	.	.	4f\	-ły	-ły	.	.	4a\	-ły	-ły	.	.	4ff\	-ły	-ły	.	.	.	.	.	.	.	.	.	[
=31	=31	=31	=31	=31	=31	=31	=31	=31	=31	=31	=31	=31	=31	=31	=31	=31	=31	=31	=31	=31	=31	=31	=31	=31	=31	=31	=31	=31	=31	=31	=31	=31
*xywh-#56:7903,6172,4783,1274	*	*	*	*	*	*	*	*	*	*	*	*	*	*	*	*	*	*	*	*	*	*	*	*	*	*	*	*	*	*	*	*
!LO:PB:g=original	!	!	!	!	!	!	!	!	!	!	!	!	!	!	!	!	!	!	!	!	!	!	!	!	!	!LO:MO:mod=rfz >	!	!	!	!LO:MO:mod=rfz >	!	!LO:MO:mod=rfz >
2C;/	8 5- 3-	.	2C;/	.	2C;/	Oy-	Oj-	.	.	2e-X;\	Oy-	Oj-	.	.	2a;\	Oy-	Oj-	.	.	2gg-X;\	Oy-	Oj-	.	.	2cc;\	rfz	2ee-;\	rfz>	2a;\	rfz	2gg-X;\	rfz
!	!	!	!	!	!	!	!	!	!	!	!	!	!	!	!	!	!	!	!	!	!	!	!	!	!	!LO:MO:null:mod=]	!	!	!	!LO:MO:null:mod=]	!	!LO:MO:null:mod=]
4r	.	.	4r	.	4C/	-cze	-cze	.	.	4e-\	-cze	-cze	.	.	4a\	-cze	-cze	.	.	4a\	-cze	-cze	.	.	2r	.	2r	]	2r	.	2r	.
4C/	.	.	4C/	.	4r	.	.	.	.	4r	.	.	.	.	4r	.	.	.	.	4r	.	.	.	.	.	.	.	.	.	.	.	.
=32	=32	=32	=32	=32	=32	=32	=32	=32	=32	=32	=32	=32	=32	=32	=32	=32	=32	=32	=32	=32	=32	=32	=32	=32	=32	=32	=32	=32	=32	=32	=32	=32
*xywh-#57:2257,435,4687,894	*	*	*	*	*xywh-#22:7673,3768,4945,776	*	*	*	*	*	*	*	*	*	*	*	*	*	*	*xywh-#4:7799,3363,4714,627	*	*	*	*	*	*	*	*	*	*	*	*
!LO:LB:g=original	!	!	!	!	!LO:PB:g=original	!	!	!	!	!	!	!	!	!	!	!	!	!	!	!LO:PB:g=original	!	!	!	!	!	!	!	!	!	!	!	!
2C/	.	.	2C/	.	2C/	Oy-	Oj-	.	.	0r	.	.	.	.	1r	.	.	.	.	0r	.	.	.	.	00r	.	00r	.	00r	.	00r	.
!	!	!	!	!	!	!	!	!	!	!LO:TX:a:mod=:t=3	!	!	!	!	!LO:TX:a:mod=:t=1.	!	!	!	!	!LO:TX:a:mod=:t=2	!	!	!	!	!LO:TX:a:mod=:t=10	!	!LO:TX:a:mod=:t=10	!	!LO:TX:a:mod=:t=6	!	!LO:TX:a:mod=:t=6	!
4D/	.	.	4D/	.	4D/	-cze	-cze	.	.	.	.	.	.	.	.	.	.	.	.	.	.	.	.	.	.	.	.	.	.	.	.	.
4C/	.	.	4C/	.	4C/	kto-	któ-	.	.	.	.	.	.	.	.	.	.	.	.	.	.	.	.	.	.	.	.	.	.	.	.	.
=33	=33	=33	=33	=33	=33	=33	=33	=33	=33	=33	=33	=33	=33	=33	=33	=33	=33	=33	=33	=33	=33	=33	=33	=33	=33	=33	=33	=33	=33	=33	=33	=33
*	*	*	*xywh-#28:2173,6226,4984,1076	*	*	*	*	*	*	*	*	*	*	*	*	*	*	*	*	*	*	*	*	*	*	*	*	*	*	*	*	*
!	!	!	!LO:PB:g=original	!	!	!	!	!	!	!	!	!	!	!	!	!	!	!	!	!	!	!	!	!	!	!	!	!	!	!	!	!
.	.	.	.	.	4qqC/	.	.	.	.	.	.	.	.	.	.	.	.	.	.	.	.	.	.	.	.	.	.	.	.	.	.	.
2BB-/	6	.	2BB-/	.	2.BB-/	-re-	-re-	.	.	.	.	.	.	.	2g\	Oy-	Oj-	.	.	.	.	.	.	.	.	.	.	.	.	.	.	.
2B-\	7 3	.	2B-\	.	.	.	.	.	.	.	.	.	.	.	4a\	-cze	-cze	.	.	.	.	.	.	.	.	.	.	.	.	.	.	.
.	6 _	.	.	.	4BB-/	-go	-go	.	.	.	.	.	.	.	4g\	któ-	któ-	.	.	.	.	.	.	.	.	.	.	.	.	.	.	.
=34	=34	=34	=34	=34	=34	=34	=34	=34	=34	=34	=34	=34	=34	=34	=34	=34	=34	=34	=34	=34	=34	=34	=34	=34	=34	=34	=34	=34	=34	=34	=34	=34
.	.	.	.	.	.	.	.	.	.	.	.	.	.	.	4qqg/	.	.	.	.	.	.	.	.	.	.	.	.	.	.	.	.	.
4r	6\ 3	.	4r	.	4AA/	wła-	wła-	.	.	1r	.	.	.	.	2.f#X\	-re-	-re-	.	.	2cc\	Oy-	Oj-	.	.	.	.	.	.	.	.	.	.
4A\	_ _	.	4A\	.	4AA/	-dza	-dza	.	.	.	.	.	.	.	.	.	.	.	.	.	.	.	.	.	.	.	.	.	.	.	.	.
4F#X\	6	.	4F#X\	.	4D/	nie-	nie-	.	.	.	.	.	.	.	.	.	.	.	.	4dd\	-cze	-cze	.	.	.	.	.	.	.	.	.	.
4D\	7 #	.	4D\	.	4D/	-po-	-po-	.	.	.	.	.	.	.	4f#\	-go	-go	.	.	4cc\	któ-	któ-	.	.	.	.	.	.	.	.	.	.
=35	=35	=35	=35	=35	=35	=35	=35	=35	=35	=35	=35	=35	=35	=35	=35	=35	=35	=35	=35	=35	=35	=35	=35	=35	=35	=35	=35	=35	=35	=35	=35	=35
*	*	*	*	*	*	*	*	*	*	*	*	*	*	*	*xywh-#10:7686,3921,4769,750	*	*	*	*	*	*	*	*	*	*	*	*	*	*	*	*	*
!	!	!	!	!	!	!	!	!	!	!	!	!	!	!	!LO:PB:g=original	!	!	!	!	!	!	!	!	!	!	!	!	!	!	!	!	!
.	.	.	.	.	.	.	.	.	.	.	.	.	.	.	.	.	.	.	.	4qqcc/	.	.	.	.	.	.	.	.	.	.	.	.
2G\	7 n	.	2G\	.	2GG/	-ję-	-ję-	.	.	2d\	Oy-	Oj-	.	.	4fn\	wła-	wła-	.	.	2.bn\	-re-	-re-	.	.	.	.	.	.	.	.	.	.
.	.	.	.	.	.	.	.	.	.	.	.	.	.	.	4f\	-dza	-dza	.	.	.	.	.	.	.	.	.	.	.	.	.	.	.
2GG/	8 7	.	2GG/	.	4GG/	-ta	-ta	.	.	4e-\	-cze	-cze	.	.	4g\	nie-	nie-	.	.	.	.	.	.	.	.	.	.	.	.	.	.	.
.	.	.	.	.	4GG/	o-	o-	.	.	4d\	kyó-	któ-	.	.	4d\	-po-	-po-	.	.	4b\	-go	-go	.	.	.	.	.	.	.	.	.	.
=36	=36	=36	=36	=36	=36	=36	=36	=36	=36	=36	=36	=36	=36	=36	=36	=36	=36	=36	=36	=36	=36	=36	=36	=36	=36	=36	=36	=36	=36	=36	=36	=36
.	.	.	.	.	.	.	.	.	.	4qqd/	.	.	.	.	4qqf/	.	.	.	.	.	.	.	.	.	.	.	.	.	.	.	.	.
4r	6 3	.	4r	.	2C/	-gar-	-gar-	.	.	2.c\	-re-	-re-	.	.	2en\	-ię-	-ję-	.	.	4b-X\	wła-	wła-	.	.	00r	.	00r	.	0r	.	0r	.
4G\	_ _	.	4G\	.	.	.	.	.	.	.	.	.	.	.	.	.	.	.	.	4b-\	-dza	-dza	.	.	.	.	.	.	.	.	.	.
4En\	6	.	4En\	.	2C/	-nie	-nie	.	.	.	.	.	.	.	4e\	-ta	-ta	.	.	4cc\	nie-	nie-	.	.	.	.	.	.	.	.	.	.
4C/	7 n	.	4C\	.	.	.	.	.	.	4c\	-go	-go	.	.	4e\	o-	o-	.	.	4b-\	-po-	-po-	.	.	.	.	.	.	.	.	.	.
=37	=37	=37	=37	=37	=37	=37	=37	=37	=37	=37	=37	=37	=37	=37	=37	=37	=37	=37	=37	=37	=37	=37	=37	=37	=37	=37	=37	=37	=37	=37	=37	=37
*	*	*	*	*	*xywh-#22:7699,4291,5043,815	*	*	*	*	*xywh-#16:7606,2175,5034,829	*	*	*	*	*	*	*	*	*	*	*	*	*	*	*	*	*	*	*	*	*	*
!	!	!	!	!	!LO:PB:g=original	!	!	!	!	!LO:PB:g=original	!	!	!	!	!	!	!	!	!	!	!	!	!	!	!	!	!	!	!	!	!	!
.	.	.	.	.	.	.	.	.	.	.	.	.	.	.	.	.	.	.	.	4qqb-/	.	.	.	.	.	.	.	.	.	.	.	.
2F\	7-	.	2F\	.	(2F\	ra-	ra-	.	.	4c\	wła-	wła-	.	.	(2e-X\	-gar-	-gar-	.	.	2a\	-ię-	-ję-	.	.	.	.	.	.	.	.	.	.
.	_	.	.	.	.	.	.	.	.	4c\	-dza	-dza	.	.	.	.	.	.	.	.	.	.	.	.	.	.	.	.	.	.	.	.
4F#X\	.	.	4F#X\	.	4F#X\)	.	.	.	.	4c\	nie-	nie-	.	.	4f\)	.	.	.	.	4a\	-ta	-ta	.	.	.	.	.	.	.	.	.	.
4c\	.	.	4c\	.	4F#\	-zem	-zem	.	.	4c\	-po-	-po-	.	.	4e-\	-nia	-nia	.	.	4a\	o-	o-	.	.	.	.	.	.	.	.	.	.
=38	=38	=38	=38	=38	=38	=38	=38	=38	=38	=38	=38	=38	=38	=38	=38	=38	=38	=38	=38	=38	=38	=38	=38	=38	=38	=38	=38	=38	=38	=38	=38	=38
.	.	.	.	.	.	.	.	.	.	4qqc/	.	.	.	.	.	.	.	.	.	.	.	.	.	.	.	.	.	.	.	.	.	.
4B-\	7 3	.	4B-\	.	1G\	Nie-	Nie-	.	.	2B-\	-ię-	-ję-	.	.	2.d\	ra-	ra-	.	.	(2a\	-gar-	-gar-	.	.	.	.	.	.	2r	.	2r	.
4G\	_ _	.	4G\	.	.	.	.	.	.	.	.	.	.	.	.	.	.	.	.	.	.	.	.	.	.	.	.	.	.	.	.	.
4D\	6 4	.	4D\	.	.	.	.	.	.	4B-\	-ta	-ta	.	.	.	.	.	.	.	4g\)	.	.	.	.	.	.	.	.	4r	.	4r	.
4BB-/	_ _	.	4BB-/	.	.	.	.	.	.	4B-\	o-	o-	.	.	4d\	-zem	-zem	.	.	4dd\	-nia	-nia	.	.	.	.	.	.	4d/	.	4dd\	.
=39	=39	=39	=39	=39	=39	=39	=39	=39	=39	=39	=39	=39	=39	=39	=39	=39	=39	=39	=39	=39	=39	=39	=39	=39	=39	=39	=39	=39	=39	=39	=39	=39
*	*	*	*	*	*	*	*	*	*	*	*	*	*	*	*	*	*	*	*	*xywh-#4:7819,3848,4675,666	*	*	*	*	*	*	*	*	*	*	*	*
!	!	!	!	!	!	!	!	!	!	!	!	!	!	!	!	!	!	!	!	!LO:PB:g=original	!	!	!	!	!	!	!	!	!	!	!	!
4AA/	7 4	.	4AA/	.	2En\	-bo	-bo	.	.	2.B-\	-gar-	-gar-	.	.	2g\	Nie-	Nie-	.	.	2dd\	ra-	ra-	.	.	.	.	.	.	(2eX/	.	(2dd^<\	.
4En\	_ _	.	4En\	.	.	.	.	.	.	.	.	.	.	.	.	.	.	.	.	.	.	.	.	.	.	.	.	.	.	.	.	.
4A\	#	.	4A\	.	(4A\	i	i	.	.	.	.	.	.	.	2en\	.	.	.	.	2cc#X\	-zem,	-zem	.	.	.	.	.	.	4e/)	.	4cc#X\)	.
4G\	_	.	4G\	.	4G\)	.	.	.	.	4B-\	-nia	-nia	.	.	.	.	.	.	.	.	.	.	.	.	.	.	.	.	4r	.	4r	.
=40	=40	=40	=40	=40	=40	=40	=40	=40	=40	=40	=40	=40	=40	=40	=40	=40	=40	=40	=40	=40	=40	=40	=40	=40	=40	=40	=40	=40	=40	=40	=40	=40
*xywh-#57:2300,1155,4758,654	*	*	*	*	*	*	*	*	*	*	*	*	*	*	*xywh-#10:7621,4456,4834,724	*	*	*	*	*	*	*	*	*	*	*	*	*	*	*	*	*
!LO:PB:g=original	!	!	!	!	!	!	!	!	!	!	!	!	!	!	!LO:PB:g=original	!	!	!	!	!	!	!	!	!	!	!	!	!	!	!	!	!
4Fn\	6	.	4Fn\	.	(2Fn\	ſwiat	świat	.	.	2A\	ra-	ra-	.	.	2.f\	-bo	-bo	.	.	4dd\	Nie-	Nie-	.	.	0r	.	0r	.	2r	.	2r	.
4A\	.	.	4A\	.	.	.	.	.	.	.	.	.	.	.	.	.	.	.	.	4dd\	-bo	-bo	.	.	.	.	.	.	.	.	.	.
4F\	.	.	4F\	.	2D\)	.	.	.	.	2A\	-zem	-zem	.	.	.	.	.	.	.	4a\	i	i	.	.	.	.	.	.	4r	.	4r	.
4D\	.	.	4D\	.	.	.	.	.	.	.	.	.	.	.	4f\	i	i	.	.	4ff\	Swiat	świat	.	.	.	.	.	.	4f/	.	4ff\	.
=41	=41	=41	=41	=41	=41	=41	=41	=41	=41	=41	=41	=41	=41	=41	=41	=41	=41	=41	=41	=41	=41	=41	=41	=41	=41	=41	=41	=41	=41	=41	=41	=41
*	*	*	*xywh-#28:7653,171,5069,1069	*	*	*	*	*	*	*	*	*	*	*	*	*	*	*	*	*	*	*	*	*	*	*	*	*	*	*	*	*
!	!	!	!LO:LB:g=original	!	!	!	!	!	!	!	!	!	!	!	!	!	!	!	!	!	!	!	!	!	!	!	!	!	!	!	!	!
4C\	7 4	.	4C\	.	2C/	ca-	ca-	.	.	2B-\	Nie-	Nie-	.	.	1g\	Swiat	świat	.	.	2ff\	ca-	ca-	.	.	.	.	.	.	[2g/	.	(2ff^<\	.
8En\L	_ _	.	8En\L	.	.	.	.	.	.	.	.	.	.	.	.	.	.	.	.	.	.	.	.	.	.	.	.	.	.	.	.	.
8G\J	.	.	8G\J	.	.	.	.	.	.	.	.	.	.	.	.	.	.	.	.	.	.	.	.	.	.	.	.	.	.	.	.	.
4c\	n	.	4c\	.	4C/	-ły	-ły	.	.	4c\	.	.	.	.	.	.	.	.	.	4een\	-ły	-ły	.	.	.	.	.	.	4g/]	.	4eeX\)	.
4B-\	_	.	4B-\	.	4C/	i	i	.	.	4B-\	.	.	.	.	.	.	.	.	.	8r	.	.	.	.	.	.	.	.	4r	.	4r	.
!	!	!	!	!	!	!	!	!	!	!	!	!	!	!	!	!	!	!	!	!	!	!	!	!	!	!LO:MO:null:mod=.	!	!	!	!	!	!
.	7	.	.	.	.	.	.	.	.	.	.	.	.	.	.	.	.	.	.	8ee\	i	i	.	.	.	f	.	.	.	.	.	.
=42	=42	=42	=42	=42	=42	=42	=42	=42	=42	=42	=42	=42	=42	=42	=42	=42	=42	=42	=42	=42	=42	=42	=42	=42	=42	=42	=42	=42	=42	=42	=42	=42
*	*	*	*	*	*	*	*	*	*	*xywh-#16:7669,2692,4932,814	*	*	*	*	*	*	*	*	*	*	*	*	*	*	*	*	*	*	*	*	*	*
!	!	!	!	!	!	!	!	!	!	!LO:PB:g=original	!	!	!	!	!	!	!	!	!	!	!	!	!	!	!	!LO:MO:null:mod=f	!	!	!	!	!	!
4A\	6	.	4A\	.	2F\	grze-	grze-	.	.	2A\	-bo	-bo	.	.	2f\	ca-	ca-	.	.	(2ff\	grze-	grze-	.	.	[1f/	.	[1cc\	f	[1a/	f	(1ff\	f
4F\	_	.	4F\	.	.	.	.	.	.	.	.	.	.	.	.	.	.	.	.	.	.	.	.	.	.	.	.	.	.	.	.	.
4C/	.	.	4C\	.	2F\	-chy	-chy	.	.	4r	.	.	.	.	4f\	-ły	-ły	.	.	4een\)	.	.	.	.	.	.	.	.	.	.	.	.
4F\	.	.	4F\	.	.	.	.	.	.	4A\	i	i	.	.	4f\	i	i	.	.	4dd\	-chy	-chy	.	.	.	.	.	.	.	.	.	.
=43	=43	=43	=43	=43	=43	=43	=43	=43	=43	=43	=43	=43	=43	=43	=43	=43	=43	=43	=43	=43	=43	=43	=43	=43	=43	=43	=43	=43	=43	=43	=43	=43
*	*	*	*	*	*xywh-#22:7719,4800,4978,776	*	*	*	*	*	*	*	*	*	*	*	*	*	*	*	*	*	*	*	*	*	*	*	*	*	*	*
!	!	!	!	!	!LO:PB:g=original	!	!	!	!	!	!	!	!	!	!	!	!	!	!	!	!	!	!	!	!	!	!	!	!	!	!	!
4AA/	6	.	4AA/	.	2F\	ludz-	ludz-	.	.	(2A\	swiat	świat	.	.	2.f\	grze-	grze-	.	.	2cc\	ludz-	ludz-	.	.	2f/]	.	2cc\]	.	2a\]	.	1ff\)	.
4F\	.	.	4F\	.	.	.	.	.	.	.	.	.	.	.	.	.	.	.	.	.	.	.	.	.	.	.	.	.	.	.	.	.
4BB-/	5	.	4BB-/	.	4BB-/	-kie	-kie	.	.	2B-\)	.	.	.	.	.	.	.	.	.	4dd\	-kie	-kie	.	.	2b-\	.	2dd\	.	2b-\	.	.	.
4F\	.	.	4F\	.	4BB-/	do-	do-	.	.	.	.	.	.	.	4f\	-chy	-chy	.	.	4dd\	do-	do-	.	.	.	.	.	.	.	.	.	.
=44	=44	=44	=44	=44	=44	=44	=44	=44	=44	=44	=44	=44	=44	=44	=44	=44	=44	=44	=44	=44	=44	=44	=44	=44	=44	=44	=44	=44	=44	=44	=44	=44
4C\	9 3n	.	4C\	.	1C/	-bro-	-bro-	.	.	2G/	ca-	ca-	.	.	2en\	ludz-	ludz-	.	.	(4dd\	-bro-	-bro-	.	.	1cc\	.	1cc\	.	1g/	.	1eeX\	.
4D\	7 3	.	4D\	.	.	.	.	.	.	.	.	.	.	.	.	.	.	.	.	4cc\)	.	.	.	.	.	.	.	.	.	.	.	.
.	_	.	.	.	.	.	.	.	.	.	.	.	.	.	.	.	.	.	.	.	.	.	.	.	.	.	.	.	.	.	.	.
4En\	3	.	4En\	.	.	.	.	.	.	4G/	-ły	-ły	.	.	4e\	-kie	-kie	.	.	4cc\	-cią	-cią	.	.	.	.	.	.	.	.	.	.
4C/	7- 3	.	4C\	.	.	.	.	.	.	4G/	i	i	.	.	4e\	do-	do-	.	.	4b-\	za-	za-	.	.	.	.	.	.	.	.	.	.
=45	=45	=45	=45	=45	=45	=45	=45	=45	=45	=45	=45	=45	=45	=45	=45	=45	=45	=45	=45	=45	=45	=45	=45	=45	=45	=45	=45	=45	=45	=45	=45	=45
*	*	*	*	*	*	*	*	*	*	*	*	*	*	*	*	*	*	*	*	*xywh-#4:7831,4443,4688,666	*	*	*	*	*	*	*	*	*	*	*	*
!	!	!	!	!	!	!	!	!	!	!	!	!	!	!	!	!	!	!	!	!LO:PB:g=original	!	!	!	!	!	!	!	!	!	!	!	!
!	!	!	!	!	!	!	!	!	!	!	!	!	!	!	!	!	!	!	!	!LO:SIC:s=4qqb-	!	!	!	!	!	!	!	!	!	!	!	!
.	.	.	.	.	.	.	.	.	.	.	.	.	.	.	.	.	.	.	.	4.qqb-/	.	.	.	.	.	.	.	.	.	.	.	.
4D\	5 3	.	4D\	.	2D\	-cią	-cią	.	.	2.F/	grze-	grze-	.	.	2f\	-bro-	-bro-	.	.	2a\	-gła-	-gła-	.	.	2f/	.	2dd\	.	1f/	.	2ff\	.
8F\L	.	.	8F\L	.	.	.	.	.	.	.	.	.	.	.	.	.	.	.	.	.	.	.	.	.	.	.	.	.	.	.	.	.
8A\J	.	.	8A\J	.	.	.	.	.	.	.	.	.	.	.	.	.	.	.	.	.	.	.	.	.	.	.	.	.	.	.	.	.
4d\	.	.	4d\	.	2D\	do-	do-	.	.	.	.	.	.	.	4f\	-cią	-cią	.	.	4a\	-dza	-dza	.	.	2r	.	2r	.	.	.	2a\	.
4AA/	6	.	4AA/	.	.	.	.	.	.	8G/L	-chy	-chy	.	.	4f\	za-	za-	.	.	8r	.	.	.	.	.	.	.	.	.	.	.	.
.	.	.	.	.	.	.	.	.	.	8A/J	.	.	.	.	.	.	.	.	.	8a\	i	i	.	.	.	.	.	.	.	.	.	.
=46	=46	=46	=46	=46	=46	=46	=46	=46	=46	=46	=46	=46	=46	=46	=46	=46	=46	=46	=46	=46	=46	=46	=46	=46	=46	=46	=46	=46	=46	=46	=46	=46
*	*	*	*	*	*	*	*	*	*	*	*	*	*	*	*xywh-#10:7718,4965,4684,809	*	*	*	*	*	*	*	*	*	*xywh-#44:2419,2283,6741,717	*	*	*	*	*	*	*
!	!	!	!	!	!	!	!	!	!	!	!	!	!	!	!LO:PB:g=original	!	!	!	!	!	!	!	!	!	!LO:PB:g=original	!	!	!	!	!	!	!
4BB-/	6	.	4BB-/	.	2BB-/	-bro-	-bro-	.	.	2B-\	ludz-	ludz-	.	.	2d\	-gła-	-gła-	.	.	(2g\	grze-	grze-	.	.	1r	.	1r	.	2g/	.	2g\	.
4D\	.	.	4D/	.	.	.	.	.	.	.	.	.	.	.	.	.	.	.	.	.	.	.	.	.	.	.	.	.	.	.	.	.
!	!	!	!	!	!	!	!	!	!	!	!	!	!	!	!	!	!	!	!	!	!	!	!	!	!LO:TX:a:mod=:t=1	!	!LO:TX:a:mod=:t=1	!	!	!	!	!
4AA/	6 3	.	4AA/	.	2AA/	.	.	.	.	4c\	-kie	-kie	.	.	4en\	-dza	-dza	.	.	4a\)	.	.	.	.	.	.	.	.	2f#X/	.	2a\	.
4D\	.	.	4D/	.	.	.	.	.	.	4c\	do-	do-	.	.	4f#X\	do-	do-	.	.	4a\	-chy	-chy	.	.	.	.	.	.	.	.	.	.
=47	=47	=47	=47	=47	=47	=47	=47	=47	=47	=47	=47	=47	=47	=47	=47	=47	=47	=47	=47	=47	=47	=47	=47	=47	=47	=47	=47	=47	=47	=47	=47	=47
*	*	*	*	*	*	*	*	*	*	*	*	*	*	*	*	*	*	*	*	*	*	*	*	*	*	*	*	*	*xywh-#38:2451,3885,6769,731	*	*	*
!	!	!	!	!	!	!	!	!	!	!	!	!	!	!	!	!	!	!	!	!	!	!	!	!	!	!	!	!	!LO:PB:g=original	!	!	!
4GG/	8 -	.	4GG/	.	2GG/	-cią	-cią	.	.	2B-\	-bro-	-bro-	.	.	2g\	-bro-	-bro-	.	.	(4b-\	lu-	lu-	.	.	2r	.	2r	.	1g/	.	2b-\	.
4G\	_ _	.	4G\	.	.	.	.	.	.	.	.	.	.	.	.	.	.	.	.	4dd\)	.	.	.	.	.	.	.	.	.	.	.	.
4A\	.	.	4A\	.	4r	.	.	.	.	4c\	-cią	-cią	.	.	4g\	-cią	-cią	.	.	4b-\	-dzkie	-dzkie	.	.	2b-\	.	2dd\	.	.	.	4cc\	.
4B-\	.	.	4B-\	.	4BB-/	za-	za-	.	.	4d\	do-	do-	.	.	4g\	za-	za-	.	.	4g\	do-	do-	.	.	.	.	.	.	.	.	4dd\	.
=48	=48	=48	=48	=48	=48	=48	=48	=48	=48	=48	=48	=48	=48	=48	=48	=48	=48	=48	=48	=48	=48	=48	=48	=48	=48	=48	=48	=48	=48	=48	=48	=48
*xywh-#57:2333,1619,4768,692	*	*	*	*	*	*	*	*	*	*xywh-#16:7732,3240,4877,822	*	*	*	*	*	*	*	*	*	*	*	*	*	*	*	*	*xywh-#42:2419,2387,6700,738	*	*	*	*	*
!LO:PB:g=original	!	!	!	!	!	!	!	!	!	!LO:PB:g=original	!	!	!	!	!	!	!	!	!	!	!	!	!	!	!	!	!LO:PB:g=original	!	!	!	!	!
2c\	5 4	.	2c\	.	1C/	-gła-	-gła-	.	.	2c\	-bro-	-bro-	.	.	1c\	-gła-	-gła-	.	.	(4f/	-bro-	-bro-	.	.	1cc\	.	[1cc\	.	4f/	.	2cc\	.
.	n _	.	.	.	.	.	.	.	.	.	.	.	.	.	.	.	.	.	.	4en/)	.	.	.	.	.	.	.	.	4eX/	.	.	.
2C/	7 2	.	2C/	.	.	.	.	.	.	4B-\	-cią	-cią	.	.	.	.	.	.	.	4d/	-cią	-cią	.	.	.	.	.	.	4d/	.	2b-\	.
.	3n	.	.	.	.	.	.	.	.	4B-\	za-	za-	.	.	.	.	.	.	.	4e/	za-	za-	.	.	.	.	.	.	4e/	.	.	.
=49	=49	=49	=49	=49	=49	=49	=49	=49	=49	=49	=49	=49	=49	=49	=49	=49	=49	=49	=49	=49	=49	=49	=49	=49	=49	=49	=49	=49	=49	=49	=49	=49
*	*	*	*	*	*	*	*	*	*	*	*	*	*	*	*	*	*	*	*	*	*	*	*	*	*	*	*	*	*	*	*xywh-#34:2344,4214,7154,745	*
!	!	!	!	!	!	!	!	!	!	!	!	!	!	!	!	!	!	!	!	!	!	!	!	!	!	!	!	!	!	!	!LO:PB:g=original	!
.	.	.	.	.	.	.	.	.	.	4qqB-/	.	.	.	.	.	.	.	.	.	4qqg/	.	.	.	.	.	.	.	.	.	.	.	.
2F\	8 n	.	2F\	.	2F\	-dza	-dza	.	.	2A\	-gła-	-gła-	.	.	2c\	-dza	-dza	.	.	2f/	-gła-	-gła-	.	.	2f/	.	2cc\]	.	2f/	.	2a\	.
2r;	.	.	2r;	.	2r;	.	.	.	.	4A\	-dza	-dza	.	.	2r;	.	.	.	.	4f/	-dza	-dza	.	.	2r;	.	2r;	.	2r;	.	2r;	.
.	.	.	.	.	.	.	.	.	.	4r;	.	.	.	.	.	.	.	.	.	4r;	.	.	.	.	.	.	.	.	.	.	.	.
=50	=50	=50	=50	=50	=50	=50	=50	=50	=50	=50	=50	=50	=50	=50	=50	=50	=50	=50	=50	=50	=50	=50	=50	=50	=50	=50	=50	=50	=50	=50	=50	=50
*	*	*	*xywh-#28:7705,1052,4860,711	*	*xywh-#22:7641,5328,5030,763	*	*	*	*	*	*	*	*	*	*	*	*	*	*	*xywh-#4:7864,4948,4630,685	*	*	*	*	*	*	*	*	*	*	*	*
!	!	!	!LO:PB:g=original	!	!LO:PB:g=original	!	!	!	!	!	!	!	!	!	!	!	!	!	!	!LO:PB:g=original	!	!	!	!	!LO:TX:a:mod=:t=12	!	!LO:TX:a:mod=:t=12	!	!LO:TX:a:mod=:t=12	!	!LO:TX:a:mod=:t=12	!
4BB-/	.	.	4BB-/	.	2B-\	Tyś	Tyś	.	.	2d\	Tyś	Tyś	.	.	2f\	Tyś	Tyś	.	.	2b-\	Tyś	Tyś	.	.	00r	.	00r	.	00r	.	00r	.
4B-\	.	.	4B-\	.	.	.	.	.	.	.	.	.	.	.	.	.	.	.	.	.	.	.	.	.	.	.	.	.	.	.	.	.
4A\	6	.	4A\	.	4A\	coś	coś	.	.	4c\	coś	coś	.	.	4f\	coś	coś	.	.	4f\	cos	cos	.	.	.	.	.	.	.	.	.	.
4G\	-	.	4G\	.	4G\	po-	po-	.	.	4B-\	po-	po-	.	.	4f\	po-	po-	.	.	4b-\	po-	po-	.	.	.	.	.	.	.	.	.	.
=51	=51	=51	=51	=51	=51	=51	=51	=51	=51	=51	=51	=51	=51	=51	=51	=51	=51	=51	=51	=51	=51	=51	=51	=51	=51	=51	=51	=51	=51	=51	=51	=51
*	*	*	*	*	*	*	*	*	*	*	*	*	*	*	*xywh-#10:7764,5480,4697,756	*	*	*	*	*	*	*	*	*	*	*	*	*	*	*	*	*
4F#X\	6	.	4F#X\	.	2D\	-ſa-	-ſa-	.	.	2A\	-sa-	-sa-	.	.	2f#X\	-sa-	-sa-	.	.	2dd\	-ſa-	-ſa-	.	.	.	.	.	.	.	.	.	.
4D\	_	.	4D\	.	.	.	.	.	.	.	.	.	.	.	.	.	.	.	.	.	.	.	.	.	.	.	.	.	.	.	.	.
4En\	.	.	4En\	.	4D\	-dzon	-dzon	.	.	4d\	-dzon	-dzon	.	.	4f#\	-dzon	-dzon	.	.	4a\	-dzon	-dzon	.	.	.	.	.	.	.	.	.	.
4F#X\	.	.	4F#\	.	4D\	na	na	.	.	4d\	na	na	.	.	4f#\	na	na	.	.	4a\	na	na	.	.	.	.	.	.	.	.	.	.
=52	=52	=52	=52	=52	=52	=52	=52	=52	=52	=52	=52	=52	=52	=52	=52	=52	=52	=52	=52	=52	=52	=52	=52	=52	=52	=52	=52	=52	=52	=52	=52	=52
4G\	-	.	4G\	.	(4G\	Oy-	Oj-	.	.	(4d\	Oy-	Oj-	.	.	(4g\	Oy-	Oj-	.	.	(4b-\	Oy-	Oj-	.	.	.	.	.	.	.	.	.	.
4A\	6	.	4A\	.	4F\)	.	.	.	.	4e-\)	.	.	.	.	4a\)	.	.	.	.	4cc\)	.	.	.	.	.	.	.	.	.	.	.	.
4B-\	.	.	4B-\	.	4B-\	-ca	-ca	.	.	4d\	-ca	-ca	.	.	4b-\	-ca	-ca	.	.	4dd\	-ca	-ca	.	.	.	.	.	.	.	.	.	.
4BB-/	6 4n 3-	.	4BB-/	.	4B-\	pra-	pra-	.	.	4d-X\	pra-	pra-	.	.	4g\	pra-	pra-	.	.	4een\	pra-	pra-	.	.	.	.	.	.	.	.	.	.
=53	=53	=53	=53	=53	=53	=53	=53	=53	=53	=53	=53	=53	=53	=53	=53	=53	=53	=53	=53	=53	=53	=53	=53	=53	=53	=53	=53	=53	=53	=53	=53	=53
*	*	*	*	*	*	*	*	*	*	*xywh-#16:7779,3796,4791,743	*	*	*	*	*	*	*	*	*	*	*	*	*	*	*	*	*	*	*	*	*	*
!	!	!	!	!	!	!	!	!	!	!LO:PB:g=original	!	!	!	!	!	!	!	!	!	!	!	!	!	!	!	!	!	!	!	!	!	!
4AA/	6	.	4AA/	.	(4A\	-wi-	-wi-	.	.	2c\	-wi-	-wi-	.	.	1f\	-wi-	-wi-	.	.	1ff\	-wi-	-wi-	.	.	.	.	.	.	.	.	.	.
8C/L	.	.	8C/L	.	4G\)	.	.	.	.	.	.	.	.	.	.	.	.	.	.	.	.	.	.	.	.	.	.	.	.	.	.	.
8F/J	.	.	8F/J	.	.	.	.	.	.	.	.	.	.	.	.	.	.	.	.	.	.	.	.	.	.	.	.	.	.	.	.	.
4A\	.	.	4A\	.	4F\	-cy	-cy	.	.	4c\	-cy	-cy	.	.	.	.	.	.	.	.	.	.	.	.	.	.	.	.	.	.	.	.
4c\	6 3	.	4c\	.	4E-\	do	do	.	.	4A\	do	do	.	.	.	.	.	.	.	.	.	.	.	.	.	.	.	.	.	.	.	.
=54	=54	=54	=54	=54	=54	=54	=54	=54	=54	=54	=54	=54	=54	=54	=54	=54	=54	=54	=54	=54	=54	=54	=54	=54	=54	=54	=54	=54	=54	=54	=54	=54
4d\	6	.	4d\	.	(2D/	Cie-	Cie-	.	.	(4B-\	cie-	Cie-	.	.	1f\	.	.	.	.	1ff\	.	.	.	.	00r	.	00r	.	00r	.	00r	.
4D\	_	.	4D\	.	.	.	.	.	.	4F/)	.	.	.	.	.	.	.	.	.	.	.	.	.	.	.	.	.	.	.	.	.	.
4C\	5 3-	.	4C\	.	4C/)	.	.	.	.	4G/	-bie	-bie	.	.	.	.	.	.	.	.	.	.	.	.	.	.	.	.	.	.	.	.
4c\	6	.	4c\	.	4C/	-bie	-bie	.	.	4A/	do	do	.	.	.	.	.	.	.	.	.	.	.	.	.	.	.	.	.	.	.	.
=55	=55	=55	=55	=55	=55	=55	=55	=55	=55	=55	=55	=55	=55	=55	=55	=55	=55	=55	=55	=55	=55	=55	=55	=55	=55	=55	=55	=55	=55	=55	=55	=55
*xywh-#57:2218,2170,5030,703	*	*	*	*	*xywh-#22:7712,5870,5036,711	*	*	*	*	*	*	*	*	*	*	*	*	*	*	*	*	*	*	*	*	*	*	*	*	*	*	*
!LO:PB:g=original	!	!	!	!	!LO:PB:g=original	!	!	!	!	!	!	!	!	!	!	!	!	!	!	!	!	!	!	!	!	!	!	!	!	!	!	!
4B-\	3	.	4B-\	.	2BB-/	wzno-	wzno-	.	.	(4B-\	cie-	Cie-	.	.	1f\	.	.	.	.	1ff\	.	.	.	.	.	.	.	.	.	.	.	.
4BB-/	.	.	4BB-/	.	.	.	.	.	.	2d\)	.	.	.	.	.	.	.	.	.	.	.	.	.	.	.	.	.	.	.	.	.	.
4AA/	6	.	4AA/	.	4AA/	-szą	-szą	.	.	.	.	.	.	.	.	.	.	.	.	.	.	.	.	.	.	.	.	.	.	.	.	.
4A\	.	.	4A\	.	4AA/	po-	po-	.	.	4c\	-bie	-bie	.	.	.	.	.	.	.	.	.	.	.	.	.	.	.	.	.	.	.	.
=56	=56	=56	=56	=56	=56	=56	=56	=56	=56	=56	=56	=56	=56	=56	=56	=56	=56	=56	=56	=56	=56	=56	=56	=56	=56	=56	=56	=56	=56	=56	=56	=56
4G\	7_ 3	.	4G\	.	(4GG/	-kor-	-kor-	.	.	(4B-\	wzno-	wzno-	.	.	1f\	.	.	.	.	1ff\	.	.	.	.	.	.	.	.	.	.	.	.
4B-\	x 3	.	4B-\	.	4BB-/)	.	.	.	.	4G\)	.	.	.	.	.	.	.	.	.	.	.	.	.	.	.	.	.	.	.	.	.	.
4A\	x 3	.	4A\	.	4AA/	-ne	-ne	.	.	4c\	-ſzą	-ſzą	.	.	.	.	.	.	.	.	.	.	.	.	.	.	.	.	.	.	.	.
4G\	x 3	.	4G\	.	4GG/	wo-	wo-	.	.	4B-\	po-	po-	.	.	.	.	.	.	.	.	.	.	.	.	.	.	.	.	.	.	.	.
=57	=57	=57	=57	=57	=57	=57	=57	=57	=57	=57	=57	=57	=57	=57	=57	=57	=57	=57	=57	=57	=57	=57	=57	=57	=57	=57	=57	=57	=57	=57	=57	=57
*	*	*	*	*	*	*	*	*	*	*	*	*	*	*	*	*	*	*	*	*xywh-#4:7767,5433,4759,743	*	*	*	*	*	*	*	*	*	*	*	*
!	!	!	!	!	!	!	!	!	!	!	!	!	!	!	!	!	!	!	!	!LO:PB:g=original	!	!	!	!	!	!	!	!	!	!	!	!
4F\	n	.	4F\	.	1FF/	-ła-	-ła-	.	.	(4A/	-ko-	-ko-	.	.	2f\	-cy	-cy	.	.	2ff\	-cy	-cy	.	.	.	.	.	.	.	.	.	.
8C/L	.	.	8C/L	.	.	.	.	.	.	4G/)	.	.	.	.	.	.	.	.	.	.	.	.	.	.	.	.	.	.	.	.	.	.
8AA/J	.	.	8AA/J	.	.	.	.	.	.	.	.	.	.	.	.	.	.	.	.	.	.	.	.	.	.	.	.	.	.	.	.	.
4FF/	.	.	4FF/	.	.	.	.	.	.	4F/	-rne	-rne	.	.	4r	.	.	.	.	4r	.	.	.	.	.	.	.	.	.	.	.	.
4F\	7	.	4F\	.	.	.	.	.	.	4F/	wo-	wo-	.	.	4cc\	do	do	.	.	4ee-\	do	do	.	.	.	.	.	.	.	.	.	.
=58	=58	=58	=58	=58	=58	=58	=58	=58	=58	=58	=58	=58	=58	=58	=58	=58	=58	=58	=58	=58	=58	=58	=58	=58	=58	=58	=58	=58	=58	=58	=58	=58
*	*	*	*xywh-#28:7744,1555,4847,756	*	*	*	*	*	*	*xywh-#16:7677,4203,4971,869	*	*	*	*	*	*	*	*	*	*	*	*	*	*	*	*	*	*	*	*	*	*
!	!	!	!LO:PB:g=original	!	!	!	!	!	!	!LO:PB:g=original	!	!	!	!	!	!	!	!	!	!	!	!	!	!	!	!	!	!	!	!	!	!
2F\	6 4	.	2F\	.	1FF/	.	.	.	.	1F/	-ła-	-ła-	.	.	(4b-\	Cie-	Cie-	.	.	(2dd\	Cie-	Cie-	.	.	00r	.	00r	.	00r	.	00r	.
.	.	.	.	.	.	.	.	.	.	.	.	.	.	.	4f\	.	.	.	.	.	.	.	.	.	.	.	.	.	.	.	.	.
4FF/	5 3	.	4FF/	.	.	.	.	.	.	.	.	.	.	.	4g\)	.	.	.	.	4cc\)	-bie	-bie	.	.	.	.	.	.	.	.	.	.
4F\	.	.	4F\	.	.	.	.	.	.	.	.	.	.	.	4a\	-bie	-bie	.	.	4cc\	.	.	.	.	.	.	.	.	.	.	.	.
=59	=59	=59	=59	=59	=59	=59	=59	=59	=59	=59	=59	=59	=59	=59	=59	=59	=59	=59	=59	=59	=59	=59	=59	=59	=59	=59	=59	=59	=59	=59	=59	=59
*	*	*	*	*	*	*	*	*	*	*	*	*	*	*	*xywh-#10:7660,5989,4893,809	*	*	*	*	*	*	*	*	*	*	*	*	*	*	*	*	*
!	!	!	!	!	!	!	!	!	!	!	!	!	!	!	!LO:PB:g=original	!	!	!	!	!	!	!	!	!	!	!	!	!	!	!	!	!
2F\	9 6 4	.	2F\	.	1FF/	.	.	.	.	1F/	.	.	.	.	(4g\	wzno-	wzno-	.	.	2b-\	wzno-	wzno-	.	.	.	.	.	.	.	.	.	.
.	.	.	.	.	.	.	.	.	.	.	.	.	.	.	4d\)	.	.	.	.	.	.	.	.	.	.	.	.	.	.	.	.	.
4FF/	8 5 3	.	4FF/	.	.	.	.	.	.	.	.	.	.	.	4en\	-szą	-szą	.	.	4a\	-ſzą	-ſzą	.	.	.	.	.	.	.	.	.	.
4F\	.	.	4F\	.	.	.	.	.	.	.	.	.	.	.	4f\	po-	po-	.	.	4a\	po-	po-	.	.	.	.	.	.	.	.	.	.
=60	=60	=60	=60	=60	=60	=60	=60	=60	=60	=60	=60	=60	=60	=60	=60	=60	=60	=60	=60	=60	=60	=60	=60	=60	=60	=60	=60	=60	=60	=60	=60	=60
2F\	7 2	.	2F\	.	1FF/	.	.	.	.	1F/	.	.	.	.	(4en\	-kor-	-kor-	.	.	(4g\	-kor-	-kor-	.	.	.	.	.	.	.	.	.	.
.	.	.	.	.	.	.	.	.	.	.	.	.	.	.	4d\)	.	.	.	.	4b-\)	.	.	.	.	.	.	.	.	.	.	.	.
2FF/	8 3	.	2FF/	.	.	.	.	.	.	.	.	.	.	.	4c/	-ne	-ne	.	.	4a\	-ne	-ne	.	.	.	.	.	.	.	.	.	.
.	7 2	.	.	.	.	.	.	.	.	.	.	.	.	.	4B-/	wo-	wo-	.	.	4g\	wo-	wo-	.	.	.	.	.	.	.	.	.	.
=61	=61	=61	=61	=61	=61	=61	=61	=61	=61	=61	=61	=61	=61	=61	=61	=61	=61	=61	=61	=61	=61	=61	=61	=61	=61	=61	=61	=61	=61	=61	=61	=61
2F\	8 3	.	2F\	.	2.FF/	.	.	.	.	2F/	-nia	-nia	.	.	2A/	-ła-	-ła-	.	.	2f/	-ta-	-ła-	.	.	.	.	.	.	.	.	.	.
2r	.	.	2r	.	.	.	.	.	.	2r	.	.	.	.	4A/	-nia	-nia	.	.	4f/	-nia	-nia	.	.	.	.	.	.	.	.	.	.
.	.	.	.	.	8AA/L	.	.	.	.	.	.	.	.	.	4r	.	.	.	.	4r	.	.	.	.	.	.	.	.	.	.	.	.
.	.	.	.	.	8GG/J	.	.	.	.	.	.	.	.	.	.	.	.	.	.	.	.	.	.	.	.	.	.	.	.	.	.	.
=62	=62	=62	=62	=62	=62	=62	=62	=62	=62	=62	=62	=62	=62	=62	=62	=62	=62	=62	=62	=62	=62	=62	=62	=62	=62	=62	=62	=62	=62	=62	=62	=62
*	*	*	*	*	*xywh-#22:7621,6333,5219,1030	*	*	*	*	*	*	*	*	*	*	*	*	*	*	*	*	*	*	*	*	*	*	*	*	*	*	*
!	!	!	!	!	!LO:PB:g=original	!	!	!	!	!	!	!	!	!	!LO:SIC:s=1r;	!	!	!	!	!	!	!	!	!	!	!	!	!	!	!	!	!
1r;	.	.	1r;	.	2FF;/	-nia	-nia	.	.	1r;	.	.	.	.	1r	.	.	.	.	1r;	.	.	.	.	1r;	.	1r;	.	1r;	.	1r;	.
!LO:TX:a:i:mod=:t=Adagio:mod=	!	!	!	!	!	!	!	!	!	!	!	!	!	!	!	!	!	!	!	!	!	!	!	!	!	!	!	!	!	!	!	!
.	.	.	.	.	2r;	.	.	.	.	.	.	.	.	.	.	.	.	.	.	.	.	.	.	.	.	.	.	.	.	.	.	.
=63||	=63||	=63||	=63||	=63||	=63||	=63||	=63||	=63||	=63||	=63||	=63||	=63||	=63||	=63||	=63||	=63||	=63||	=63||	=63||	=63||	=63||	=63||	=63||	=63||	=63||	=63||	=63||	=63||	=63||	=63||	=63||	=63||
!!!OMD:
!!!OMD-mod: Adagio
*	*	*	*	*	*	*	*	*	*	*	*	*	*	*	*	*	*	*	*	*xywh-#4:7819,5970,4817,750	*	*	*	*	*	*	*	*	*	*	*	*
!LO:PB:g=original	!	!	!	!	!	!	!	!	!	!	!	!	!	!	!	!	!	!	!	!LO:PB:g=original	!	!	!	!	!	!	!	!	!	!	!	!
!LO:MO:mod=*null:null	!	!	!LO:MO:mod=*null:null	!	!	!	!	!	!	!	!	!	!	!	!	!	!	!	!	!	!	!	!	!	!LO:TX:b:i:mod=:t=Adagio	!	!LO:TX:a:i:mod=:t=Adagio	!	!LO:TX:a:i:mod=:t=Adagio	!	!	!
*xywh-#57:2273,2667,4899,785	*	*	*	*	*	*	*	*	*	*	*	*	*	*	*	*	*	*	*	*	*	*	*	*	*	*	*	*	*	*	*	*
*clefC4	*	*	*clefC4	*	*	*	*	*	*	*	*	*	*	*	*	*	*	*	*	*	*	*	*	*	*	*	*	*	*	*	*	*
!	!	!LO:MO:null:mod=!LO&colon;DY&colon;ed=brack	!	!	!	!	!	!	!	!	!	!	!	!	!	!	!	!	!	!	!	!	!	!	!	!	!	!	!	!	!	!
!	!	!	!	!	!	!	!	!	!	!	!	!	!	!	!	!	!	!	!	!	!	!	!	!	!	!	!	!	!	!	!	!
!LO:TX:b:i:mod=:t=Adagio	!	!LO:MO:null:mod=p	!LO:TX:a:i:mod=:t=Adagio	!LO:MO:null:mod=p	!LO:TX:b:i:mod=:t=Adagio	!	!	!	!	!LO:TX:a:i:mod=:t=Adagio	!	!	!	!LO:DY:ed=brack	!LO:TX:b:i:mod=:t=Adagio	!	!	!	!	!LO:TX:a:i:mod=:t=Ada-gio	!	!	!	!LO:DY:ed=brack	!	!	!	!	!	!	!LO:TX:a:i:mod=:t=Adagio	!
2.B-\	6	.	2.B-\	.	1r	.	.	.	.	2.B-\	Pę-	Pę-	.	p	1r	.	.	.	.	2.dd\	Pę-	Pę-	.	p	00r	.	00r	.	2.b-\	p	2.dd\	p
!	!	!	!	!LO:DY:b	!	!	!	!	!	!	!	!	!	!	!	!	!	!	!	!	!	!	!	!	!	!	!	!	!	!	!	!
!	!	!	!	!LO:MO:null:mod=.	!	!	!	!	!	!	!	!	!	!	!	!	!	!	!	!	!	!	!	!	!	!	!	!	!	!	!	!
.	.	.	.	p	.	.	.	.	.	.	.	.	.	.	.	.	.	.	.	.	.	.	.	.	.	.	.	.	.	.	.	.
!	!	!	!	!	!	!	!	!	!	!	!	!	!	!	!LO:TX:a:mod=:t=1	!	!	!	!	!	!	!	!	!	!LO:TX:a:mod=:t=15	!	!LO:TX:a:mod=:t=15	!	!	!	!	!
4c\	6	.	4c\	.	.	.	.	.	.	4c\	.	.	.	.	.	.	.	.	.	4cc\	.	.	.	.	.	.	.	.	4a\	.	4cc\	.
=64	=64	=64	=64	=64	=64	=64	=64	=64	=64	=64	=64	=64	=64	=64	=64	=64	=64	=64	=64	=64	=64	=64	=64	=64	=64	=64	=64	=64	=64	=64	=64	=64
*	*	*	*	*	*	*	*	*	*	*	*	*	*	*	*xywh-#10:7555,6498,4899,1076	*	*	*	*	*	*	*	*	*	*	*	*	*	*	*	*	*
!	!	!	!	!	!	!	!	!	!	!	!	!	!	!	!LO:PB:g=original	!	!	!	!	!	!	!	!	!	!	!	!	!	!	!	!	!
!LO:SIC:v:t= pierwsza nuta w kluczu tenorowym	!	!	!LO:SIC:v:t= pierwsza nuta w kluczu tenorowym	!	!	!	!	!	!	!	!	!	!	!	!	!	!	!	!	!	!	!	!	!	!	!	!	!	!	!	!	!
2d\	6 4	.	2d\	.	4r	.	.	.	.	2d\	-tnem	-tnem	.	.	4r	.	.	.	.	2b-\	-tnem	-tnem	.	.	.	.	.	.	2g/	.	2b-\	.
!	!	!	!	!	!	!	!	!	!LO:DY:ed=brack	!	!	!	!	!	!	!	!	!	!LO:DY:ed=brack	!	!	!	!	!	!	!	!	!	!	!	!	!
.	.	.	.	.	4D\	Pę-	Pę-	.	p	.	.	.	.	.	4g\	Pę-	Pę-	.	p	.	.	.	.	.	.	.	.	.	.	.	.	.
!LO:MO:mod=*null:null	!	!	!LO:MO:mod=*null:null	!	!	!	!	!	!	!	!	!	!	!	!	!	!	!	!	!	!	!	!	!	!	!	!	!	!	!	!	!
*clefF4	*	*	*clefF4	*	*	*	*	*	*	*	*	*	*	*	*	*	*	*	*	*	*	*	*	*	*	*	*	*	*	*	*	*
2D\	7 #	.	2D\	.	4D\	-tnem	-tnem	.	.	2c\	win	win	.	.	4f#X\	-tnem	-tnem	.	.	2a\	win	win	.	.	.	.	.	.	2f#X/	.	2a\	.
.	.	.	.	.	4D\	win	win	.	.	.	.	.	.	.	4f#\	win	win	.	.	.	.	.	.	.	.	.	.	.	.	.	.	.
=65	=65	=65	=65	=65	=65	=65	=65	=65	=65	=65	=65	=65	=65	=65	=65	=65	=65	=65	=65	=65	=65	=65	=65	=65	=65	=65	=65	=65	=65	=65	=65	=65
2GG/	-	.	2GG/	.	1GG/	mno-	mno-	.	.	(2B-\	mno-	mno-	.	.	(2g\	mno-	mno-	.	.	2.g\	mno-	mno-	.	.	.	.	.	.	(2g/	.	(2g\	.
2G\	7# 2	.	2G\	.	.	.	.	.	.	2c\)	.	.	.	.	2e-X\)	.	.	.	.	.	.	.	.	.	.	.	.	.	2f#X/	.	2a\	.
.	.	.	.	.	.	.	.	.	.	.	.	.	.	.	.	.	.	.	.	8qqb-/	.	.	.	.	.	.	.	.	.	.	.	.
.	.	.	.	.	.	.	.	.	.	.	.	.	.	.	.	.	.	.	.	4a\	.	.	.	.	.	.	.	.	.	.	.	.
=66	=66	=66	=66	=66	=66	=66	=66	=66	=66	=66	=66	=66	=66	=66	=66	=66	=66	=66	=66	=66	=66	=66	=66	=66	=66	=66	=66	=66	=66	=66	=66	=66
*	*	*	*	*	*	*	*	*	*	*xywh-#16:7779,4821,4861,782	*	*	*	*	*	*	*	*	*	*	*	*	*	*	*	*	*	*	*	*	*	*
!	!	!	!	!	!	!	!	!	!	!LO:PB:g=original	!	!	!	!	!	!	!	!	!	!	!	!	!	!	!	!	!	!	!	!	!	!
2GG/	8 -	.	2GG/	.	2GG/	-gich	-gich	.	.	2B-\	-gich	-gich	.	.	2d\	-gich	-gich	.	.	2g\	-gich	-gich	.	.	.	.	.	.	2g/)	.	2g\)	.
2r	.	.	2r	.	2r	.	.	.	.	4r	.	.	.	.	2r	.	.	.	.	4r	.	.	.	.	.	.	.	.	2r	.	2r	.
.	.	.	.	.	.	.	.	.	.	4B-\	o-	o-	.	.	.	.	.	.	.	4dd\	o-	o-	.	.	.	.	.	.	.	.	.	.
=67	=67	=67	=67	=67	=67	=67	=67	=67	=67	=67	=67	=67	=67	=67	=67	=67	=67	=67	=67	=67	=67	=67	=67	=67	=67	=67	=67	=67	=67	=67	=67	=67
*	*	*	*xywh-#28:7634,2096,5004,717	*	*	*	*	*	*	*	*	*	*	*	*	*	*	*	*	*	*	*	*	*	*	*	*	*	*	*	*	*
!	!	!	!LO:PB:g=original	!	!	!	!	!	!	!	!	!	!	!	!	!	!	!	!	!	!	!	!	!	!	!	!	!	!	!	!	!
!LO:MO:mod=*null:null	!	!	!LO:MO:mod=*null:null	!	!	!	!	!	!	!	!	!	!	!	!	!	!	!	!	!	!	!	!	!	!	!	!	!	!	!	!	!
*clefC4	*	*	*clefC4	*	*	*	*	*	*	*	*	*	*	*	*	*	*	*	*	*	*	*	*	*	*	*	*	*	*	*	*	*
2B-\	6 3	.	2B-\	.	1r	.	.	.	.	2B-\	-kry-	-kry-	.	.	1r	.	.	.	.	2.gg\	-kry-	-kry-	.	.	00r	.	00r	.	2g/	.	(2.gg\	.
!	!	!	!	!	!LO:TX:a:mod=:t=1	!	!	!	!	!	!	!	!	!	!LO:TX:a:mod=:t=1.	!	!	!	!	!	!	!	!	!	!	!	!	!	!	!	!	!
2A\	7 3	.	2A\	.	.	.	.	.	.	2A\	.	.	.	.	.	.	.	.	.	.	.	.	.	.	.	.	.	.	2a/	.	.	.
.	6	.	.	.	.	.	.	.	.	.	.	.	.	.	.	.	.	.	.	4ff\	.	.	.	.	.	.	.	.	.	.	4ff\	.
=68	=68	=68	=68	=68	=68	=68	=68	=68	=68	=68	=68	=68	=68	=68	=68	=68	=68	=68	=68	=68	=68	=68	=68	=68	=68	=68	=68	=68	=68	=68	=68	=68
*	*	*	*	*	*xywh-#23:2253,488,4899,985	*	*	*	*	*	*	*	*	*	*xywh-#11:2468,569,4632,848	*	*	*	*	*	*	*	*	*	*	*	*	*	*	*	*	*
!	!	!	!	!	!LO:LB:g=original	!	!	!	!	!	!	!	!	!	!LO:LB:g=original	!	!	!	!	!	!	!	!	!	!	!	!	!	!	!	!	!
!LO:SIC:v:t= pierwsza nuta w kluczu tenorowym	!	!	!LO:SIC:v:t= pierwsza nuta w kluczu tenorowym	!	!	!	!	!	!	!	!	!	!	!	!LO:SIC:v:t=zamazanych kilka taktów	!	!	!	!	!	!	!	!	!	!	!	!	!	!	!	!	!
2G/	6n	.	2G/	.	2r	.	.	.	.	2G/	-ci	-ci	.	.	2r	.	.	.	.	2een\	-ci	-ci	.	.	.	.	.	.	2b-\	.	2eeX\	.
!LO:MO:mod=*null:null	!	!	!LO:MO:mod=*null:null	!	!	!	!	!	!	!	!	!	!	!	!	!	!	!	!	!	!	!	!	!	!	!	!	!	!	!	!	!
*clefF4	*	*	*clefF4	*	*	*	*	*	*	*	*	*	*	*	*	*	*	*	*	*	*	*	*	*	*	*	*	*	*	*	*	*
2GG#X/	7 5	.	2GG#X/	.	2GG#X/	o-	o-	.	.	2B-\	grzesz-	grze-	.	.	2f\	O	o-	.	.	2dd\	grze-	grze-	.	.	.	.	.	.	[2f/	.	2dd\	.
=69	=69	=69	=69	=69	=69	=69	=69	=69	=69	=69	=69	=69	=69	=69	=69	=69	=69	=69	=69	=69	=69	=69	=69	=69	=69	=69	=69	=69	=69	=69	=69	=69
2AA/	6 4	.	2AA/	.	2AA/	-kry-	-kry-	.	.	1A\	-ni-	-szni-	.	.	2f\	kry-	-kry-	.	.	(2.dd\	-ſzni-	-ſzni-	.	.	.	.	.	.	2f/]	.	2.dd\)	.
2A\	4#	.	2A\	.	4AA/	-ci	-ci	.	.	.	.	.	.	.	4en\	-ci	-ci	.	.	.	.	.	.	.	.	.	.	.	2eX/	.	.	.
.	3	.	.	.	4AA/	grze-	grze-	.	.	.	.	.	.	.	4e\	grzesz-	grze-	.	.	4cc#X\)	.	.	.	.	.	.	.	.	.	.	4cc#X\	.
=70	=70	=70	=70	=70	=70	=70	=70	=70	=70	=70	=70	=70	=70	=70	=70	=70	=70	=70	=70	=70	=70	=70	=70	=70	=70	=70	=70	=70	=70	=70	=70	=70
*	*	*	*	*	*	*	*	*	*	*	*	*	*	*	*xywh-#11:2507,1182,4651,750	*	*	*	*	*xywh-#4:7870,6610,4889,737	*	*	*	*	*	*	*	*	*	*	*	*
!	!	!	!	!	!	!	!	!	!	!	!	!	!	!	!LO:PB:g=original	!	!	!	!	!LO:PB:g=original	!	!	!	!	!	!	!	!	!	!	!	!
2D\	#	.	2D\	.	2D\	-Szni-	-szni-	.	.	2A\	-cy	-cy	.	.	2f#X\	-ni-	-szni-	.	.	2dd\	-cy	-cy	.	.	.	.	.	.	2f#X/	.	2dd\	.
2r	.	.	2r	.	2D\	-cy	-cy	.	.	2r	.	.	.	.	2f#\	-cy	-cy	.	.	2r	.	.	.	.	.	.	.	.	2r	.	2r	.
=71	=71	=71	=71	=71	=71	=71	=71	=71	=71	=71	=71	=71	=71	=71	=71	=71	=71	=71	=71	=71	=71	=71	=71	=71	=71	=71	=71	=71	=71	=71	=71	=71
*xywh-#57:2316,3223,4845,731	*	*	*	*	*	*	*	*	*	*	*	*	*	*	*	*	*	*	*	*	*	*	*	*	*	*	*	*	*	*	*	*
!LO:PB:g=original	!	!	!	!	!	!	!	!	!	!	!	!	!	!	!	!	!	!	!	!	!	!	!	!	!	!	!	!	!	!	!	!
2C/	4 2	.	2C/	.	4r	.	.	.	.	(4c\	O-	o-	.	.	4r	.	.	.	.	2ee-\	O-	o-	.	.	00r	.	00r	.	2r	.	2r	.
.	.	.	.	.	4C/	o-	o-	.	.	4B-\)	.	.	.	.	4f#X\	o-	o-	.	.	.	.	.	.	.	.	.	.	.	.	.	.	.
2c\	.	.	2c\	.	4C/	-każ	-każ	.	.	4A\	-każ	-każ	.	.	4f#\	-każ	-każ	.	.	4ee-\	-każ	-każ	.	.	.	.	.	.	2f#X/	.	2ee-\	.
.	.	.	.	.	4C/	nad	nad	.	.	4A\	nad	nad	.	.	4f#\	nad	nad	.	.	4ee-\	nad	nad	.	.	.	.	.	.	.	.	.	.
=72	=72	=72	=72	=72	=72	=72	=72	=72	=72	=72	=72	=72	=72	=72	=72	=72	=72	=72	=72	=72	=72	=72	=72	=72	=72	=72	=72	=72	=72	=72	=72	=72
*	*	*	*	*	*	*	*	*	*	*xywh-#16:7630,5315,5143,900	*	*	*	*	*	*	*	*	*	*	*	*	*	*	*	*	*	*	*xywh-#38:2492,4319,6499,731	*	*	*
!	!	!	!	!	!	!	!	!	!	!LO:PB:g=original	!	!	!	!	!	!	!	!	!	!	!	!	!	!	!	!	!	!	!LO:PB:g=original	!	!	!
2B-\	6	.	2B-\	.	2.BB-/	na-	na-	.	.	2B-\	na-	na-	.	.	2.g\	na-	na-	.	.	2dd\	na-	na-	.	.	.	.	.	.	2r	.	2r	.
2BB-/	.	.	2BB-/	.	.	.	.	.	.	2d\	-mi	-mi	.	.	.	.	.	.	.	2g\	-mi	-mi	.	.	.	.	.	.	2g/	.	2dd\	.
.	.	.	.	.	4BB-/	-mi	-mi	.	.	.	.	.	.	.	4g\	-mi	-mi	.	.	.	.	.	.	.	.	.	.	.	.	.	.	.
=73	=73	=73	=73	=73	=73	=73	=73	=73	=73	=73	=73	=73	=73	=73	=73	=73	=73	=73	=73	=73	=73	=73	=73	=73	=73	=73	=73	=73	=73	=73	=73	=73
4AA/	7	.	4AA/	.	4AA/	two-	Two-	.	.	4c\	two-	Two-	.	.	4g\	two-	Two-	.	.	4cc\	two-	Two-	.	.	.	.	.	.	2r	.	2r	.
8BB-/L	.	.	8BB-/L	.	8BB-/L	-ią	-ją	.	.	4e-\	-ią	-ją	.	.	4g\	-ią	-ją	.	.	4cc\	-ią	-ją	.	.	.	.	.	.	.	.	.	.
8C/J	.	.	8C/J	.	8C/J	.	.	.	.	.	.	.	.	.	.	.	.	.	.	.	.	.	.	.	.	.	.	.	.	.	.	.
*	*	*	*	*	*xywh-#23:2297,1204,4919,782	*	*	*	*	*	*	*	*	*	*	*	*	*	*	*	*	*	*	*	*	*	*	*	*	*	*	*
!	!	!	!	!	!LO:PB:g=original	!	!	!	!	!	!	!	!	!	!	!	!	!	!	!	!	!	!	!	!	!	!	!	!	!	!	!
4D\	7 #	.	4D/	.	4D\	li-	li-	.	.	4d\	li-	li-	.	.	4f#X\	li-	li-	.	.	4dd\	li-	li-	.	.	.	.	.	.	2a\	.	2cc\	.
4D\	.	.	4D/	.	4D\	-tość	-tość	.	.	4c\	-tość	-tość	.	.	4f#\	-tość	-tość	.	.	4a\	-toſć	-toſć	.	.	.	.	.	.	.	.	.	.
=74	=74	=74	=74	=74	=74	=74	=74	=74	=74	=74	=74	=74	=74	=74	=74	=74	=74	=74	=74	=74	=74	=74	=74	=74	=74	=74	=74	=74	=74	=74	=74	=74
2E-X\	5	.	2E-X\	.	2E-X\	Pa-	Pa-	.	.	2B-\	Pa-	Pa-	.	.	2f#X\	Pa-	Pa-	.	.	2cc\	Pa-	Pa-	.	.	.	.	.	.	2r	.	2r	.
2r	.	.	2r	.	4E-\	-nie	-nie	.	.	4B-\	-nie	-nie	.	.	4g\	-nie	-nie	.	.	4b-\	-nie	-nie	.	.	.	.	.	.	2g/	.	2b-\	.
.	.	.	.	.	4r	.	.	.	.	4r	.	.	.	.	4r	.	.	.	.	4r	.	.	.	.	.	.	.	.	.	.	.	.
=75	=75	=75	=75	=75	=75	=75	=75	=75	=75	=75	=75	=75	=75	=75	=75	=75	=75	=75	=75	=75	=75	=75	=75	=75	=75	=75	=75	=75	=75	=75	=75	=75
*	*	*	*	*	*	*	*	*	*	*	*	*	*	*	*xywh-#11:2370,1730,4854,769	*	*	*	*	*xywh-#5:2370,492,4880,965	*	*	*	*	*	*	*	*	*	*	*xywh-#34:2372,4720,6943,851	*
!	!	!	!	!	!	!	!	!	!	!	!	!	!	!	!LO:PB:g=original	!	!	!	!	!LO:LB:g=original	!	!	!	!	!	!	!	!	!	!	!	!
2AA-X/	3	.	2AA-X/	.	2AA-X/	o-	o-	.	.	2c\	O-	o-	.	.	2e-X\	O-	o-	.	.	2a-X\	O-	o-	.	.	0r	.	0r	.	0r	.	0r	.
!	!	!	!	!	!	!	!	!	!	!	!	!	!	!	!	!	!	!	!	!	!	!	!	!	!	!	!	!	!LO:TX:a:mod=:t=2	!	!LO:TX:a:mod=:t=2	!
4C/	_	.	4C/	.	4AA-/	-każ	-każ	.	.	4c\	-każ	-każ	.	.	4e-\	-każ	-każ	.	.	4a-\	-każ	-każ	.	.	.	.	.	.	.	.	.	.
4AA-/	.	.	4AA-/	.	4AA-/	ią	ją	.	.	4c\	ią	ją	.	.	4e-\	ią	ją	.	.	4a-\	ią	ją	.	.	.	.	.	.	.	.	.	.
=76	=76	=76	=76	=76	=76	=76	=76	=76	=76	=76	=76	=76	=76	=76	=76	=76	=76	=76	=76	=76	=76	=76	=76	=76	=76	=76	=76	=76	=76	=76	=76	=76
*	*	*	*xywh-#28:7653,2605,4971,756	*	*	*	*	*	*	*	*	*	*	*	*	*	*	*	*	*	*	*	*	*	*	*	*	*	*	*	*	*
!	!	!	!LO:PB:g=original	!	!	!	!	!	!	!	!	!	!	!	!	!	!	!	!	!LO:SIC:v:s=4qqa-	!	!	!	!	!	!	!	!	!	!	!	!
.	.	.	.	.	.	.	.	.	.	.	.	.	.	.	.	.	.	.	.	4qqa/	.	.	.	.	.	.	.	.	.	.	.	.
1E-\	3	.	1E-\	.	2E-\	lu-	lu-	.	.	2B-\	lu-	lu-	.	.	2e-\	lu-	lu-	.	.	2g\	lu-	lu-	.	.	.	.	.	.	.	.	.	.
.	6 5 3	.	.	.	4E-\	-dziom	-dziom	.	.	4B-\	-dziom	-dziom	.	.	4c#X\	-dziom	-dziom	.	.	4g\	-dziom	-dziom	.	.	.	.	.	.	.	.	.	.
.	.	.	.	.	4E-\	wich	w ich	.	.	4B-\	wich	w ich	.	.	4c#\	wich	w ich	.	.	4g\	wich	w ich	.	.	.	.	.	.	.	.	.	.
=77	=77	=77	=77	=77	=77	=77	=77	=77	=77	=77	=77	=77	=77	=77	=77	=77	=77	=77	=77	=77	=77	=77	=77	=77	=77	=77	=77	=77	=77	=77	=77	=77
2D\	6 4	.	2D\	.	4D\	nie-	nie-	.	.	4B-\	nie-	nie-	.	.	4d\	nie-	nie-	.	.	4g\	nie-	nie-	.	.	1r	.	1r	.	2g/	.	2b-\	.
.	.	.	.	.	2D\	-ſzczę-	-ſzczę-	.	.	(4B-\	-szczę-	-szczę-	.	.	2d\	-ſzczę-	-ſzczę-	.	.	(4b-\	-ſzczę-	-ſzczę-	.	.	.	.	.	.	.	.	.	.
2D\	7 #	.	2D\	.	.	.	.	.	.	4c\)	.	.	.	.	.	.	.	.	.	4a\)	.	.	.	.	.	.	.	.	2f#X/	.	2a\	.
.	.	.	.	.	4D\	-ściu	-ściu	.	.	4c\	-ściu	-ściu	.	.	4d\	-ściu	-ściu	.	.	4f#X/	-sciu	-ściu	.	.	.	.	.	.	.	.	.	.
=78	=78	=78	=78	=78	=78	=78	=78	=78	=78	=78	=78	=78	=78	=78	=78	=78	=78	=78	=78	=78	=78	=78	=78	=78	=78	=78	=78	=78	=78	=78	=78	=78
*	*	*	*	*	*xywh-#23:2317,1680,4965,841	*	*	*	*	*xywh-#16:7677,5855,5112,876	*	*	*	*	*	*	*	*	*	*	*	*	*	*	*	*	*	*	*	*	*	*
!	!	!	!	!	!LO:PB:g=original	!	!	!	!	!LO:PB:g=original	!	!	!	!	!	!	!	!	!	!	!	!	!	!	!	!	!	!	!	!	!	!
.	.	.	.	.	.	.	.	.	.	.	.	.	.	.	.	.	.	.	.	4qqa/	.	.	.	.	.	.	.	.	.	.	.	.
4GG/	-	.	4GG/	.	2GG/	sro-	sro-	.	.	2B-\	sro-	sro-	.	.	2d\	sro-	sro-	.	.	2g\	sro-	sro-	.	.	1r;	.	1r;	.	2g/	.	2g/	.
8BB-/L	_	.	8BB-/L	.	.	.	.	.	.	.	.	.	.	.	.	.	.	.	.	.	.	.	.	.	.	.	.	.	.	.	.	.
8D/J	.	.	8D/J	.	.	.	.	.	.	.	.	.	.	.	.	.	.	.	.	.	.	.	.	.	.	.	.	.	.	.	.	.
4G\	.	.	4G\	.	4GG/	-gim	-gim	.	.	4B-\	-gim	-gim	.	.	4d\	-gim	-gim	.	.	4g\	-gim	-gim	.	.	.	.	.	.	2r;	.	2r;	.
4r;	.	.	4r;	.	4r;	.	.	.	.	4r;	.	.	.	.	4r;	.	.	.	.	4r;	.	.	.	.	.	.	.	.	.	.	.	.
=79||	=79||	=79||	=79||	=79||	=79||	=79||	=79||	=79||	=79||	=79||	=79||	=79||	=79||	=79||	=79||	=79||	=79||	=79||	=79||	=79||	=79||	=79||	=79||	=79||	=79||	=79||	=79||	=79||	=79||	=79||	=79||	=79||
!!!OMD:
!!!OMD-mod: Allegro
*xywh-#57:2240,3786,4883,638	*	*	*	*	*	*	*	*	*	*	*	*	*	*	*	*	*	*	*	*	*	*	*	*	*	*	*	*	*	*	*	*
!LO:PB:g=original	!	!	!	!	!	!	!	!	!	!LO:TX:a:i:mod=:t=Allo.	!	!	!	!	!LO:TX:a:i:mod=:t=Allegro	!	!	!	!	!	!	!	!	!	!	!	!	!	!	!	!	!
!LO:TX:a:i:mod=:t=Allo.	!	!	!LO:TX:a:i:mod=:t=Allo.	!	!LO:TX:a:i:mod=:t=Allo.	!	!	!	!	!	!	!	!	!	!	!	!	!	!	!LO:TX:a:i:mod=:t=Allegro	!	!	!	!	!	!	!LO:TX:a:i:mod=:t=Allo.	!	!LO:TX:a:i:mod=:t=Allo.	!	!LO:TX:b:i:mod=:t=Allegro	!
!	!	!	!	!LO:DY:b	!	!	!	!	!	!	!	!	!LO:DY:b:rj	!LO:DY:b:rj	!	!	!	!LO:DY:b:rj	!LO:DY:b:rj	!	!	!	!	!	!	!	!	!	!	!	!	!
!	!	!	!	!	!	!	!	!	!	!	!	!	!	!LO:MO:null:mod=,	!	!	!	!	!LO:MO:null:mod=.	!	!	!	!	!	!	!	!	!	!	!	!	!
4r	.	.	4r	f	4r	.	.	.	.	4r	.	.	f	f	4r	.	.	f	f	4r	.	.	.	.	4r	.	4r	.	4r	.	4r	.
!	!	!	!	!	!	!	!	!	!	!	!	!	!	!	!	!	!	!	!	!	!	!	!	!	!	!	!	!	!	!	!	!LO:MO:null:mod=!LO&colon;DY&colon;ed=brack
!	!	!	!	!	!	!	!	!	!	!	!	!	!	!	!	!	!	!	!	!	!	!	!	!	!	!	!	!	!	!	!	!
!	!	!	!	!	!	!	!	!	!LO:DY:ed=brack	!	!	!	!	!LO:MO:null:mod=f	!	!	!	!	!LO:MO:null:mod=f	!	!	!	!	!LO:DY:ed=brack	!LO:TX:a:i:mod=:t=Allo.	!	!	!	!	!	!	!LO:MO:null:mod=f
4F\	.	.	4F\	.	4F\	Boś	Boś	.	f	4B-\	Boś	Boś	.	.	4f\	Boś	Boś	.	.	4f\	Boś	Boś	.	f	4f/	f	4ff\	f	4f/	f	4f/	.
4D\	6	.	4D\	.	4D\	ty	ty	.	.	4B-\	ty	ty	.	.	4f\	ty	ty	.	.	4b-\	ty	ty	.	.	4d/	.	4dd\	.	4b-\	.	4b-\	.
4BB-/	_	.	4BB-/	.	4BB-/	sam	sam	.	.	4B-\	sam	sam	.	.	4f\	sam	sam	.	.	4dd\	sam	sam	.	.	4B-/	.	4b-\	.	4dd\	.	4dd\	.
=80	=80	=80	=80	=80	=80	=80	=80	=80	=80	=80	=80	=80	=80	=80	=80	=80	=80	=80	=80	=80	=80	=80	=80	=80	=80	=80	=80	=80	=80	=80	=80	=80
*	*	*	*	*	*	*	*	*	*	*	*	*	*	*	*xywh-#11:2435,2213,4691,795	*	*	*	*	*xywh-#5:2389,1177,4749,815	*	*	*	*	*	*	*	*	*	*	*	*
!	!	!	!	!	!	!	!	!	!	!	!	!	!	!	!LO:PB:g=original	!	!	!	!	!LO:PB:g=original	!	!	!	!	!	!	!	!	!	!	!	!
.	.	.	.	.	.	.	.	.	.	.	.	.	.	.	.	.	.	.	.	4qqdd/	.	.	.	.	.	.	.	.	.	.	.	.
2F\	7	.	2F\	.	2F\	swię-	Świę-	.	.	2A\	swię-	Świę-	.	.	2e-\	Swię-	Świę-	.	.	2cc\	Swię-	Świę-	.	.	(2f/	.	(2cc\	.	(2cc\	.	(2ee-\	.
4BB-/	3	.	4BB-/	.	2BB-/	-ty	-ty	.	.	2B-\	-ty	-ty	.	.	2d\	-ty	-ty	.	.	2b-\	-ty	-ty	.	.	4d/)	.	4b-\)	.	4b-\)	.	4dd\)	.
8D/L	.	.	8D/L	.	.	.	.	.	.	.	.	.	.	.	.	.	.	.	.	.	.	.	.	.	4r	.	4r	.	4r	.	4r	.
8F/J	.	.	8F/J	.	.	.	.	.	.	.	.	.	.	.	.	.	.	.	.	.	.	.	.	.	.	.	.	.	.	.	.	.
=81	=81	=81	=81	=81	=81	=81	=81	=81	=81	=81	=81	=81	=81	=81	=81	=81	=81	=81	=81	=81	=81	=81	=81	=81	=81	=81	=81	=81	=81	=81	=81	=81
2B-\	.	.	2B-\	.	4BB-/	ty	ty	.	.	4B-\	ty	ty	.	.	4d\	ty	ty	.	.	4b-\	Ty	Ty	.	.	4r	.	4r	.	4r	.	4r	.
.	.	.	.	.	4B-\	sam-	sam	.	.	4d\	sam	sam	.	.	4b-\	sam	sam	.	.	4b-\	sam	sam	.	.	4B-/	.	4b-\	.	4d/	.	4b-\	.
4A\	6	.	4A\	.	4A\	-ies-	jes-	.	.	4e-\	ies-	jes-	.	.	4b-\	ies-	jes-	.	.	4cc\	ie-	jes-	.	.	4B-/	.	4b-\	.	4e-/	.	4cc\	.
4A-X\	4 2	.	4A-X\	.	4A-X\	-tes	-tes	.	.	4f\	-tes	-tes	.	.	4b-\	-tes	-tes	.	.	4dd\	-steś	-teś	.	.	4B-/	.	4b-\	.	4f/	.	4dd\	.
=82	=82	=82	=82	=82	=82	=82	=82	=82	=82	=82	=82	=82	=82	=82	=82	=82	=82	=82	=82	=82	=82	=82	=82	=82	=82	=82	=82	=82	=82	=82	=82	=82
4G\	6	.	4G\	.	2G\	Bo-	Bo-	.	.	2.e-\	Bo-	Bo-	.	.	2b-\	Bo-	Bo-	.	.	2ee-\	Bo-	Bo-	.	.	2B-/	.	2b-\	.	2g/	.	2ee-\	.
4E-\	.	.	4E-\	.	.	.	.	.	.	.	.	.	.	.	.	.	.	.	.	.	.	.	.	.	.	.	.	.	.	.	.	.
4BB-/	.	.	4BB-/	.	4G\	-giem	-giem	.	.	.	.	.	.	.	2b-\	-giem	-giem	.	.	4e-/	-giem	-giem	.	.	2r	.	2r	.	2r	.	2r	.
4GG/	.	.	4GG/	.	4r	.	.	.	.	4e-\	-giem	-giem	.	.	.	.	.	.	.	4r	.	.	.	.	.	.	.	.	.	.	.	.
=83	=83	=83	=83	=83	=83	=83	=83	=83	=83	=83	=83	=83	=83	=83	=83	=83	=83	=83	=83	=83	=83	=83	=83	=83	=83	=83	=83	=83	=83	=83	=83	=83
*	*	*	*	*	*xywh-#23:2356,2183,4951,848	*	*	*	*	*xywh-#16:7748,6403,5026,939	*	*	*	*	*	*	*	*	*	*	*	*	*	*	*	*	*	*	*	*	*	*
!	!	!	!	!	!LO:PB:g=original	!	!	!	!	!LO:PB:g=original	!	!	!	!	!	!	!	!	!	!	!	!	!	!	!	!	!	!	!	!LO:MO:null:mod=>	!	!
4r	5 3	.	4r	.	4r	.	.	.	.	(2e-\	Ty	Ty	.	.	4r	.	.	.	.	(2gg\	Ty	Ty	.	.	00r	.	00r	.	1b-\	.	(2gg\	>
4E-\	_ _	.	4E-\	.	(4E-/	Ty	Ty	.	.	.	.	.	.	.	2b-\	Ty	Ty	.	.	.	.	.	.	.	.	.	.	.	.	.	.	.
!	!	!	!	!	!	!	!	!	!	!	!	!	!	!	!	!	!	!	!	!	!	!	!	!	!LO:TX:a:mod=:t=10	!	!LO:TX:a:mod=:t=10	!	!	!	!	!LO:MO:null:mod=.
4D\	6	.	4D\	.	4BB-/)	.	.	.	.	4d\)	.	.	.	.	.	.	.	.	.	4ff\)	.	.	.	.	.	.	.	.	.	.	2ff\	]
!	!	!	!	!	!	!	!	!	!	!	!	!	!	!	!	!	!	!	!	!	!	!	!	!	!	!	!	!	!	!LO:MO:null:mod=]]	!	!LO:MO:null:mod=]]
4BB-/	.	.	4BB-\	.	4BB-/	sam	sam	.	.	4d\	sam	sam	.	.	4b-\	sam	sam	.	.	4ff\	sam	sam	.	.	.	.	.	.	.	.	.	.
=84	=84	=84	=84	=84	=84	=84	=84	=84	=84	=84	=84	=84	=84	=84	=84	=84	=84	=84	=84	=84	=84	=84	=84	=84	=84	=84	=84	=84	=84	=84	=84	=84
*	*	*	*xywh-#28:7686,3166,4906,658	*	*	*	*	*	*	*	*	*	*	*	*	*	*	*	*	*	*	*	*	*	*	*	*	*	*	*	*	*
!	!	!	!LO:PB:g=original	!	!	!	!	!	!	!	!	!	!	!	!	!	!	!	!	!	!	!	!	!	!	!	!	!	!	!	!	!
4C/	7 n	.	4C\	.	2C/	ieſ-	jes-	.	.	2.c\	ies-	jes-	.	.	(2b-\	ies-	jes-	.	.	2een\	ie-	jes-	.	.	.	.	.	.	2g\	.	2eeX\	.
8D\L	.	.	8D\L	.	.	.	.	.	.	.	.	.	.	.	.	.	.	.	.	.	.	.	.	.	.	.	.	.	.	.	.	.
8E-/J	.	.	8E-\J	.	.	.	.	.	.	.	.	.	.	.	.	.	.	.	.	.	.	.	.	.	.	.	.	.	.	.	.	.
4F\	7	.	4F\	.	2F\	-teś	-teś	.	.	.	.	.	.	.	4a\)	.	.	.	.	2ee-X\	-steś	-teś	.	.	.	.	.	.	4a\	.	2ee-\)	.
4AA/	.	.	4AA/	.	.	.	.	.	.	4c\	-tes	-teś	.	.	4cc\	-tes	-teś	.	.	.	.	.	.	.	.	.	.	.	4cc\	.	.	.
=85	=85	=85	=85	=85	=85	=85	=85	=85	=85	=85	=85	=85	=85	=85	=85	=85	=85	=85	=85	=85	=85	=85	=85	=85	=85	=85	=85	=85	=85	=85	=85	=85
4BB-/	.	.	4BB-/	.	(4B-\	ies-	jes-	.	.	(4d\	ies-	jes-	.	.	(4b-\	ies-	jes-	.	.	(4dd\	ies-	jes-	.	.	.	.	.	.	4b-\	.	4dd\	.
4F\	.	.	4F\	.	4F\	.	.	.	.	4e-\	.	.	.	.	4a\	.	.	.	.	4cc\	.	.	.	.	.	.	.	.	4a\	.	4cc\	.
4G\	-	.	4G\	.	4G\)	.	.	.	.	4d\)	.	.	.	.	4g\)	.	.	.	.	4b-\)	.	.	.	.	.	.	.	.	4b-\	.	4b-\	.
4E-\	6	.	4E-\	.	4E-\	-tes	-teś	.	.	4G/	-tes	-teś	.	.	4g\	-tes	-teś	.	.	4cc\	-tes	-teś	.	.	.	.	.	.	4g\	.	4cc\	.
=86	=86	=86	=86	=86	=86	=86	=86	=86	=86	=86	=86	=86	=86	=86	=86	=86	=86	=86	=86	=86	=86	=86	=86	=86	=86	=86	=86	=86	=86	=86	=86	=86
*xywh-#57:2283,4304,4779,676	*	*	*	*	*	*	*	*	*	*	*	*	*	*	*xywh-#11:2487,2807,4625,743	*	*	*	*	*xywh-#5:2409,1758,4671,795	*	*	*	*	*	*	*	*	*xywh-#38:2306,4768,7093,862	*	*	*
!LO:PB:g=original	!	!	!	!	!	!	!	!	!	!	!	!	!	!	!LO:PB:g=original	!	!	!	!	!LO:PB:g=original	!	!	!	!	!	!	!	!	!LO:PB:g=original	!	!	!
2D\	#	.	2D\	.	2D\	Bo-	Bo-	.	.	2A\	Bo-	Bo-	.	.	2f#X\	Bo-	Bo-	.	.	2dd\	Bo-	Bo-	.	.	.	.	.	.	2f#X/	.	2dd\	.
4r	.	.	4r	.	4D\	-giem	-giem	.	.	4A\	-giem	-giem	.	.	4f#\	-giem	-giem	.	.	4d/	-giem	-giem	.	.	.	.	.	.	2r	.	2r	.
!LO:TX:a:t=unis	!	!	!	!	!	!	!	!	!	!	!	!	!	!	!	!	!	!	!	!	!	!	!	!	!	!	!	!	!	!	!	!
4D\	.	.	4D\	.	4D\	boś	boś	.	.	4r	.	.	.	.	4r	.	.	.	.	4r	.	.	.	.	.	.	.	.	.	.	.	.
=87	=87	=87	=87	=87	=87	=87	=87	=87	=87	=87	=87	=87	=87	=87	=87	=87	=87	=87	=87	=87	=87	=87	=87	=87	=87	=87	=87	=87	=87	=87	=87	=87
!	!	!	!	!	!	!	!	!	!	!	!	!	!	!	!	!	!	!	!	!L	!	!	!	!	!	!	!	!	!	!	!	!
2.E-\	.	.	2.E-\	.	2.E-\	ty	Ty	.	.	2r	.	.	.	.	1r	.	.	.	.	0r	.	.	.	.	00r	.	00r	.	0r	.	0r	.
!	!	!	!	!	!	!	!	!	!	!	!	!	!	!	!LO:TX:a:mod=:t=1	!	!	!	!	!LO:TX:a:mod=:t=2	!	!	!	!	!	!	!	!	!LO:TX:a:mod=:t=3	!	!LO:TX:a:mod=:t=3	!
.	.	.	.	.	.	.	.	.	.	4r	.	.	.	.	.	.	.	.	.	.	.	.	.	.	.	.	.	.	.	.	.	.
4E-\	.	.	4E-\	.	4E-\	sam	sam	.	.	4E-/	boś	boś	.	.	.	.	.	.	.	.	.	.	.	.	.	.	.	.	.	.	.	.
=88	=88	=88	=88	=88	=88	=88	=88	=88	=88	=88	=88	=88	=88	=88	=88	=88	=88	=88	=88	=88	=88	=88	=88	=88	=88	=88	=88	=88	=88	=88	=88	=88
2D\	6	.	2D\	.	2D\	swię-	Świę-	.	.	2.B-\	Ty	Ty	.	.	2r	.	.	.	.	.	.	.	.	.	.	.	.	.	.	.	.	.
2D-X\	.	.	2D-X\	.	2D-X\	.	.	.	.	.	.	.	.	.	4r	.	.	.	.	.	.	.	.	.	.	.	.	.	.	.	.	.
.	.	.	.	.	.	.	.	.	.	4B-\	sam	sam	.	.	4B-/	boś	boś	.	.	.	.	.	.	.	.	.	.	.	.	.	.	.
=89	=89	=89	=89	=89	=89	=89	=89	=89	=89	=89	=89	=89	=89	=89	=89	=89	=89	=89	=89	=89	=89	=89	=89	=89	=89	=89	=89	=89	=89	=89	=89	=89
*	*	*	*	*	*xywh-#23:2252,2718,5062,815	*	*	*	*	*xywh-#17:2365,294,4828,1089	*	*	*	*	*	*	*	*	*	*	*	*	*	*	*	*	*	*	*	*	*	*
!	!	!	!	!	!LO:PB:g=original	!	!	!	!	!LO:LB:g=original	!	!	!	!	!	!	!	!	!	!	!	!	!	!	!	!	!	!	!	!	!	!
2C/	7 3	.	2C/	.	2C/	.	.	.	.	1B-\	Swię-	Świę-	.	.	2.e-\	ty	Ty	.	.	2r	.	.	.	.	.	.	.	.	1r	.	1r	.
2C-X/	_ _	.	2C-X/	.	2C-X/	-ty	-ty	.	.	.	.	.	.	.	.	.	.	.	.	4r	.	.	.	.	.	.	.	.	.	.	.	.
.	.	.	.	.	.	.	.	.	.	.	.	.	.	.	4e-\	sam	sam	.	.	4e-/	boś	boś	.	.	.	.	.	.	.	.	.	.
=90	=90	=90	=90	=90	=90	=90	=90	=90	=90	=90	=90	=90	=90	=90	=90	=90	=90	=90	=90	=90	=90	=90	=90	=90	=90	=90	=90	=90	=90	=90	=90	=90
*	*	*	*	*	*	*	*	*	*	*	*	*	*	*	*	*	*	*	*	*	*	*	*	*	*	*	*	*	*	*	*xywh-#35:2478,317,6796,834	*
!	!	!	!	!	!	!	!	!	!	!	!	!	!	!	!	!	!	!	!	!	!	!	!	!	!	!	!	!	!LO:LB:g=original	!	!LO:PB:g=original	!
2BB-/	8 3	.	2BB-/	.	2BB-/	ty	Ty	.	.	1B-\	.	.	.	.	1d\	swię-	Świę-	.	.	2.b-\	Ty	Ty	.	.	.	.	.	.	2r	.	2r	.
2AA-X/	4 2	.	2AA-X/	.	2AA-X/	sam	sam	.	.	.	.	.	.	.	.	.	.	.	.	.	.	.	.	.	.	.	.	.	4r	.	4r	.
!	!	!	!	!	!	!	!	!	!	!	!	!	!	!	!	!	!	!	!	!	!	!	!	!	!	!	!	!	!	!LO:MO:null:mod=!LO&colon;DY&colon;ed=brack	!	!
!	!	!	!	!	!	!	!	!	!	!	!	!	!	!	!	!	!	!	!	!	!	!	!	!	!	!	!	!	!	!	!	!
!	!	!	!	!	!	!	!	!	!	!	!	!	!	!	!	!	!	!	!	!	!	!	!	!	!	!	!	!	!	!LO:MO:null:mod=f	!	!LO:MO:null:mod=f
.	.	.	.	.	.	.	.	.	.	.	.	.	.	.	.	.	.	.	.	4b-\	sam	sam	.	.	.	.	.	.	4b-\	.	4b-\	.
=91	=91	=91	=91	=91	=91	=91	=91	=91	=91	=91	=91	=91	=91	=91	=91	=91	=91	=91	=91	=91	=91	=91	=91	=91	=91	=91	=91	=91	=91	=91	=91	=91
!	!	!	!	!	!	!	!	!	!	!	!	!	!	!	!	!	!	!	!	!	!	!	!	!	!	!	!	!	!	!	!	!LO:MO:null:mod=.
2.GG/	6	.	2.GG/	.	(2GG/	ies-	jes-	.	.	2B-\	.	.	.	.	2e-\	-ty	-ty	.	.	2ee-\	Swię-	Świę-	.	.	0r	.	0r	.	1b-\	.	2.ee-\	f
.	_	.	.	.	4G\)	.	.	.	.	2B-\	-ty	-ty	.	.	2r	.	.	.	.	2ee-\	-ty	-ty	.	.	.	.	.	.	.	.	.	.
4GG/	.	.	4GG/	.	4G\	-tes	-teś	.	.	.	.	.	.	.	.	.	.	.	.	.	.	.	.	.	.	.	.	.	.	.	4ee-\	.
=92	=92	=92	=92	=92	=92	=92	=92	=92	=92	=92	=92	=92	=92	=92	=92	=92	=92	=92	=92	=92	=92	=92	=92	=92	=92	=92	=92	=92	=92	=92	=92	=92
2AA-X/	6	.	2AA-X/	.	2A-X\	Bo-	Bo-	.	.	1c\	Ty	Ty	.	.	2r	.	.	.	.	2.ff\	Ty	Ty	.	.	.	.	.	.	1cc\	.	2ff\	.
2AAn/	6 5	.	2AAn/	.	2An\	.	.	.	.	.	.	.	.	.	2f\	boś	boś	.	.	.	.	.	.	.	.	.	.	.	.	.	[2ff\	.
.	.	.	.	.	.	.	.	.	.	.	.	.	.	.	.	.	.	.	.	4ee-\	sam	sam	.	.	.	.	.	.	.	.	.	.
=93	=93	=93	=93	=93	=93	=93	=93	=93	=93	=93	=93	=93	=93	=93	=93	=93	=93	=93	=93	=93	=93	=93	=93	=93	=93	=93	=93	=93	=93	=93	=93	=93
*	*	*	*xywh-#28:7705,3642,4951,769	*	*	*	*	*	*	*	*	*	*	*	*xywh-#11:2370,3335,4801,717	*	*	*	*	*	*	*	*	*	*	*	*	*	*	*	*	*
!	!	!	!LO:PB:g=original	!	!	!	!	!	!	!	!	!	!	!	!LO:PB:g=original	!	!	!	!	!	!	!	!	!	!	!	!	!	!	!	!	!
2BB-/	.	.	2BB-/	.	2B-\	.	.	.	.	2B-\	.	.	.	.	2f\	ty	Ty	.	.	2dd\	ies-	jes-	.	.	1B-/	.	1b-\	.	1b-\	.	2ff\]	.
2GG/	6	.	2GG/	.	2G\	-giem	-giem	.	.	2B-\	sam	sam	.	.	2g\	sam	sam	.	.	2ee-\	-tes	-teś	.	.	.	.	.	.	.	.	2gg\	.
=94	=94	=94	=94	=94	=94	=94	=94	=94	=94	=94	=94	=94	=94	=94	=94	=94	=94	=94	=94	=94	=94	=94	=94	=94	=94	=94	=94	=94	=94	=94	=94	=94
*	*	*	*	*	*	*	*	*	*	*	*	*	*	*	*	*	*	*	*	*xywh-#5:2448,2345,4723,730	*	*	*	*	*	*	*	*	*	*	*	*
!	!	!	!	!	!	!	!	!	!	!	!	!	!	!	!	!	!	!	!	!LO:PB:g=original	!	!	!	!	!	!	!	!	!	!	!	!
2G\	4 2-	.	2G\	.	2G\	Bo-	Bo-	.	.	2.A-X\	ies-	jes-	.	.	2e-\	ſwię-	Świę-	.	.	2cc\	Bo-	Bo-	.	.	1r	.	1r	.	1a-X/	.	2ee-\	.
!	!	!	!	!	!	!	!	!	!	!	!	!	!	!	!	!	!	!	!	!	!	!	!	!	!LO:TX:a:mod=:t=1	!	!LO:TX:a:mod=:t=1	!	!	!	!	!
[2F\	6	.	[2F\	.	[2F\	.	.	.	.	.	.	.	.	.	2f\	.	.	.	.	2dd\	.	.	.	.	.	.	.	.	.	.	2ff\	.
.	.	.	.	.	.	.	.	.	.	4A-\	-tes	-teś	.	.	.	.	.	.	.	.	.	.	.	.	.	.	.	.	.	.	.	.
=95	=95	=95	=95	=95	=95	=95	=95	=95	=95	=95	=95	=95	=95	=95	=95	=95	=95	=95	=95	=95	=95	=95	=95	=95	=95	=95	=95	=95	=95	=95	=95	=95
*xywh-#57:2321,4795,4665,676	*	*	*	*	*	*	*	*	*	*	*	*	*	*	*	*	*	*	*	*	*	*	*	*	*	*	*	*	*	*	*	*
!LO:PB:g=original	!	!	!	!	!	!	!	!	!	!	!	!	!	!	!	!	!	!	!	!	!	!	!	!	!	!	!	!	!	!	!	!
4F\]	4 2	.	4F\]	.	2F\]	.	.	.	.	1G/	Bo-	Bo-	.	.	2d\	.	.	.	.	2b-\	-giem	-giem	.	.	1d/	.	1dd\	.	1g/	.	2dd\	.
8G\L	.	.	8G\L	.	.	.	.	.	.	.	.	.	.	.	.	.	.	.	.	.	.	.	.	.	.	.	.	.	.	.	.	.
8F\J	.	.	8F\J	.	.	.	.	.	.	.	.	.	.	.	.	.	.	.	.	.	.	.	.	.	.	.	.	.	.	.	.	.
[2E-\	6	.	[2E-\	.	[2E-\	.	.	.	.	.	.	.	.	.	2e-\	-ty	-ty	.	.	2cc\	boś	boś	.	.	.	.	.	.	.	.	2ee-\	.
=96	=96	=96	=96	=96	=96	=96	=96	=96	=96	=96	=96	=96	=96	=96	=96	=96	=96	=96	=96	=96	=96	=96	=96	=96	=96	=96	=96	=96	=96	=96	=96	=96
*	*	*	*	*	*xywh-#23:2284,3259,5017,828	*	*	*	*	*	*	*	*	*	*	*	*	*	*	*	*	*	*	*	*	*	*	*	*	*	*	*
!	!	!	!	!	!LO:PB:g=original	!	!	!	!	!	!	!	!	!	!	!	!	!	!	!	!	!	!	!	!LO:TX:a:mod=:t=4	!	!LO:TX:a:mod=:t=4	!	!	!	!	!
4E-\]	4- 2	.	4E-\]	.	2E-\]	.	.	.	.	2F/	.	.	.	.	2c\	Ty	Ty	.	.	2a-X\	Ty	Ty	.	.	00r	.	00r	.	(1f/	.	2cc\	.
8F\L	.	.	8F\L	.	.	.	.	.	.	.	.	.	.	.	.	.	.	.	.	.	.	.	.	.	.	.	.	.	.	.	.	.
8E-\J	.	.	8E-\J	.	.	.	.	.	.	.	.	.	.	.	.	.	.	.	.	.	.	.	.	.	.	.	.	.	.	.	.	.
4D\	6	.	4D\	.	2D\	-giem	-giem	.	.	2F/	-giem	-giem	.	.	2d\	sam	sam	.	.	2b-\	ſam	ſam	.	.	.	.	.	.	.	.	2dd\	.
4BB-/	.	.	4BB-/	.	.	.	.	.	.	.	.	.	.	.	.	.	.	.	.	.	.	.	.	.	.	.	.	.	.	.	.	.
=97	=97	=97	=97	=97	=97	=97	=97	=97	=97	=97	=97	=97	=97	=97	=97	=97	=97	=97	=97	=97	=97	=97	=97	=97	=97	=97	=97	=97	=97	=97	=97	=97
*	*	*	*	*	*	*	*	*	*	*xywh-#17:2424,1071,4697,815	*	*	*	*	*	*	*	*	*	*	*	*	*	*	*	*	*	*	*	*	*	*
!	!	!	!	!	!	!	!	!	!	!LO:PB:g=original	!	!	!	!	!	!	!	!	!	!	!	!	!	!	!	!	!	!	!	!	!	!
2C/	7	.	2C/	.	2C\	Bo-	Bo-	.	.	[1F/	Bo-	Bo-	.	.	2.e-\	ies-	jes-	.	.	2b-\	Swię-	Świę-	.	.	.	.	.	.	2f/)	.	1ee-\	.
2F\	7 -	.	2F\	.	2F\	.	.	.	.	.	.	.	.	.	.	.	.	.	.	[2a-X\	.	.	.	.	.	.	.	.	[2a-X\	.	.	.
.	.	.	.	.	.	.	.	.	.	.	.	.	.	.	4e-\	-tes	-teś	.	.	.	.	.	.	.	.	.	.	.	.	.	.	.
=98	=98	=98	=98	=98	=98	=98	=98	=98	=98	=98	=98	=98	=98	=98	=98	=98	=98	=98	=98	=98	=98	=98	=98	=98	=98	=98	=98	=98	=98	=98	=98	=98
4BB-/	7-	.	4BB-/	.	2BB-/	.	.	.	.	2F/]	.	.	.	.	2d\	Bo-	Bo-	.	.	2a-X\]	.	.	.	.	.	.	.	.	2a-\]	.	2ff\	.
8C/L	.	.	8C/L	.	.	.	.	.	.	.	.	.	.	.	.	.	.	.	.	.	.	.	.	.	.	.	.	.	.	.	.	.
8D/J	.	.	8D/J	.	.	.	.	.	.	.	.	.	.	.	.	.	.	.	.	.	.	.	.	.	.	.	.	.	.	.	.	.
4E-\	3	.	4E-\	.	2E-\	-giem	-giem	.	.	2G/	-giem	-giem	.	.	2e-\	-giem	-giem	.	.	2g\	-ty	-ty	.	.	.	.	.	.	2g\	.	[2gg\	.
4GG/	.	.	4GG/	.	.	.	.	.	.	.	.	.	.	.	.	.	.	.	.	.	.	.	.	.	.	.	.	.	.	.	.	.
=99	=99	=99	=99	=99	=99	=99	=99	=99	=99	=99	=99	=99	=99	=99	=99	=99	=99	=99	=99	=99	=99	=99	=99	=99	=99	=99	=99	=99	=99	=99	=99	=99
*	*	*	*	*	*	*	*	*	*	*	*	*	*	*	*xywh-#11:2428,3831,4684,822	*	*	*	*	*	*	*	*	*	*	*	*	*	*	*	*	*
!	!	!	!	!	!	!	!	!	!	!LO:SIC:s=[1A-	!	!	!	!	!LO:PB:g=original	!	!	!	!	!	!	!	!	!	!	!	!	!	!	!	!	!
2.AA-X/	7	.	2.AA-X/	.	1AA-X/	Bo-	Bo-	.	.	1A-X\	Bo-	Bo-	.	.	1c\	Bo-	Bo-	.	.	(2g\	Ty	Ty	.	.	.	.	.	.	1cc\	.	2gg\]	.
.	6	.	.	.	.	.	.	.	.	.	.	.	.	.	.	.	.	.	.	4f#X\)	.	.	.	.	.	.	.	.	.	.	2ff#X\	.
4AA-/	.	.	4AA-/	.	.	.	.	.	.	.	.	.	.	.	.	.	.	.	.	4cc\	sam	sam	.	.	.	.	.	.	.	.	.	.
=100	=100	=100	=100	=100	=100	=100	=100	=100	=100	=100	=100	=100	=100	=100	=100	=100	=100	=100	=100	=100	=100	=100	=100	=100	=100	=100	=100	=100	=100	=100	=100	=100
*	*	*	*	*	*	*	*	*	*	*	*	*	*	*	*	*	*	*	*	*xywh-#5:2285,2769,4906,815	*	*	*	*	*xywh-#44:2329,2766,6700,696	*	*	*	*	*	*	*
!	!	!	!	!	!	!	!	!	!	!LO:SIC:s=2A-]	!	!	!	!	!	!	!	!	!	!LO:PB:g=original	!	!	!	!	!LO:PB:g=original	!	!	!	!	!	!	!
2GG;/	9- 7 n	.	2GG;/	.	2GG;/	-giem	-giem	.	.	2A-X;\	.	.	.	.	2d;\	-giem	-giem	.	.	2cc;\	Swię-	Świę-	.	.	1r;	.	1r;	.	2cc;\	.	2ffn;\	.
!	!	!	!	!	!LO:SIC:s=2r;	!	!	!	!	!	!	!	!	!	!LO:SIC:s=2r;	!	!	!	!	!	!	!	!	!	!	!	!	!	!	!	!	!
4G\	8	.	2r;	.	2r	.	.	.	.	4G\	-giem	-giem	.	.	2r	.	.	.	.	4bn\	-ty	-ty	.	.	.	.	.	.	4bX\	.	2r;	.
!	!	!	!	!	!	!	!	!	!	!	!	!	!	!	!	!	!	!	!	!	!	!	!	!	!	!	!	!	!LO:SIC:s=4r;	!	!	!
4r;	.	.	.	.	.	.	.	.	.	4r;	.	.	.	.	.	.	.	.	.	4r;	.	.	.	.	.	.	.	.	4r	.	.	.
=101	=101	=101	=101	=101	=101	=101	=101	=101	=101	=101	=101	=101	=101	=101	=101	=101	=101	=101	=101	=101	=101	=101	=101	=101	=101	=101	=101	=101	=101	=101	=101	=101
*xywh-#57:2229,5292,4867,758	*	*	*xywh-#28:7744,4165,4886,756	*	*	*	*	*	*	*	*	*	*	*	*	*	*	*	*	*	*	*	*	*	*	*	*	*	*	*	*	*
!	!	!	!LO:PB:g=original	!	!	!	!	!	!	!	!	!	!	!	!	!	!	!	!	!	!	!	!	!	!	!	!	!	!	!	!	!
!	!	!	!	!LO:DY:b	!	!	!	!LO:DY:b	!LO:DY:b	!	!	!	!	!	!	!	!	!LO:DY:b:rj	!LO:DY:b:rj	!	!	!	!	!	!	!	!	!	!	!	!	!
!	!	!	!	!LO:MO:null:mod=.	!	!	!	!	!	!	!	!	!	!	!	!	!	!	!	!	!	!	!	!	!	!	!	!	!	!	!	!
4r	-	.	4r	p	4r	.	.	p	.	4r	.	.	p	.	4r	.	.	p	.	4r	.	.	p	.	0r	.	0r	.	1r	.	0r	.
!	!	!LO:MO:null:mod=!LO&colon;DY&colon;ed=brack	!	!LO:MO:null:mod=!LO&colon;DY&colon;ed=brack	!	!	!	!	!	!	!	!	!	!	!	!	!	!	!	!	!	!	!	!	!	!	!	!	!	!	!	!
!	!	!	!	!	!	!	!	!	!	!	!	!	!	!	!	!	!	!	!	!	!	!	!	!	!	!	!	!	!	!	!	!
!	!	!LO:MO:null:mod=p	!	!LO:MO:null:mod=p	!	!	!	!	!	!	!	!	!	!	!	!	!	!	!	!	!	!	!	!	!	!	!LO:TX:a:mod=:t=3	!	!LO:TX:a:mod=:t=3	!	!LO:TX:a:mod=:t=3	!
4C/	.	.	4C\	.	4C/	Boś	Boś	.	p	4G/	bos	Boś	.	p	4e-\	Boś	Boś	.	p	4cc\	Boś	Boś	.	p	.	.	.	.	.	.	.	.
!	!	!	!	!	!	!	!	!	!	!	!	!	!	!	!	!	!	!	!	!	!	!	!	!	!LO:TX:a:mod=:t=3	!	!	!	!	!	!	!
4E-\	.	.	4E-\	.	4C/	ty	Ty	.	.	4G/	ty	Ty	.	.	4e-\	ty	Ty	.	.	4cc\	ty	Ty	.	.	.	.	.	.	.	.	.	.
4C/	.	.	4C\	.	4C/	sam	sam	.	.	4G/	sam	sam	.	.	4e-\	sam	sam	.	.	4cc\	sam	sam	.	.	.	.	.	.	.	.	.	.
=102	=102	=102	=102	=102	=102	=102	=102	=102	=102	=102	=102	=102	=102	=102	=102	=102	=102	=102	=102	=102	=102	=102	=102	=102	=102	=102	=102	=102	=102	=102	=102	=102
*	*	*	*	*	*xywh-#23:2323,3833,4919,822	*	*	*	*	*	*	*	*	*	*	*	*	*	*	*	*	*	*	*	*	*	*	*	*	*	*	*
!	!	!	!	!	!LO:PB:g=original	!	!	!	!	!	!	!	!	!	!	!	!	!	!	!	!	!	!	!	!	!	!	!	!	!	!	!
4r	6 4 3-	.	4r	.	2.BB-/	Swię-	Świę-	.	.	2.G/	swię-	swię-	.	.	2.e-\	swię-	swię-	.	.	2.dd-X\	Swię-	Swię-	.	.	.	.	.	.	1r	.	.	.
4BB-/	_ _ _	.	4BB-/	.	.	.	.	.	.	.	.	.	.	.	.	.	.	.	.	.	.	.	.	.	.	.	.	.	.	.	.	.
4B-\	.	.	4B-\	.	.	.	.	.	.	.	.	.	.	.	.	.	.	.	.	.	.	.	.	.	.	.	.	.	.	.	.	.
4A-X\	.	.	4A-X\	.	4BB-/	-ty	-ty	.	.	4G/	-ty	-ty	.	.	4e-\	-ty	-ty	.	.	4dd-\	-ty	-ty	.	.	.	.	.	.	.	.	.	.
=103	=103	=103	=103	=103	=103	=103	=103	=103	=103	=103	=103	=103	=103	=103	=103	=103	=103	=103	=103	=103	=103	=103	=103	=103	=103	=103	=103	=103	=103	=103	=103	=103
*	*	*	*	*	*	*	*	*	*	*xywh-#17:2463,1606,4697,848	*	*	*	*	*	*	*	*	*	*	*	*	*	*	*	*	*	*	*	*	*	*
!	!	!	!	!	!	!	!	!	!	!LO:PB:g=original	!	!	!	!	!	!	!	!	!	!	!	!	!	!	!	!	!	!	!	!	!	!
4G\	6	.	4G\	.	4E-'\	ty	Ty	.	.	4G/	ty	Ty	.	.	4e-\	ty	Ty	.	.	4b-\	ty	Ty	.	.	1r	.	1r	.	1r	.	1r	.
8E-\L	_	.	8E-\L	.	4E-'\	sam	sam	.	.	4G/	sam	sam	.	.	4e-\	sam	sam	.	.	4b-\	sam	sam	.	.	.	.	.	.	.	.	.	.
8F\J	.	.	8F\J	.	.	.	.	.	.	.	.	.	.	.	.	.	.	.	.	.	.	.	.	.	.	.	.	.	.	.	.	.
4G\	.	.	4G\	.	4E-'\	ies-	jes-	.	.	4G/	ies-	jes-	.	.	4e-\	ies-	jes-	.	.	4a-X\	ie-	jes-	.	.	.	.	.	.	.	.	.	.
4E-\	.	.	4E-\	.	4E-'\	-tes	-teś	.	.	4G/	-teś	-teś	.	.	4e-\	-tes	-teś	.	.	4b-\	-steś	-teś	.	.	.	.	.	.	.	.	.	.
=104	=104	=104	=104	=104	=104	=104	=104	=104	=104	=104	=104	=104	=104	=104	=104	=104	=104	=104	=104	=104	=104	=104	=104	=104	=104	=104	=104	=104	=104	=104	=104	=104
2A-X;\	.	.	2A-X;\	.	2AA-X;/	Bo-	Bo-	.	.	2A-X;\	Bo-	Bo-	.	.	2e-;\	Bo-	Bo-	.	.	2cc;\	Bo-	Bo-	.	.	1r;	.	1r;	.	1r;	.	1r;	.
!LO:SIC:v:s=4AA-	!	!	!	!	!	!	!	!	!	!	!	!	!	!	!	!	!	!	!	!	!	!	!	!	!	!	!	!	!	!	!	!
4AA/	.	.	2r;	.	4AA-/	-giem	-giem	.	.	4A-\	-giem	-giem	.	.	4e-\	-giem	-giem	.	.	4cc\	-giem	-giem	.	.	.	.	.	.	.	.	.	.
4r;	.	.	.	.	4r;	.	.	.	.	4r;	.	.	.	.	4r;	.	.	.	.	4r;	.	.	.	.	.	.	.	.	.	.	.	.
=105	=105	=105	=105	=105	=105	=105	=105	=105	=105	=105	=105	=105	=105	=105	=105	=105	=105	=105	=105	=105	=105	=105	=105	=105	=105	=105	=105	=105	=105	=105	=105	=105
*	*	*	*	*	*	*	*	*	*	*	*	*	*	*	*xywh-#11:2494,4366,4710,795	*	*	*	*	*xywh-#5:2363,3310,4893,795	*	*	*	*	*	*	*	*	*	*	*	*
!	!	!	!	!	!	!	!	!	!	!	!	!	!	!	!LO:PB:g=original	!	!	!	!	!LO:PB:g=original	!	!	!	!	!	!	!	!	!	!	!	!
4r	5 3	.	4r	.	4r	.	.	.	.	4r	.	.	.	.	4r	.	.	.	.	4r	.	.	.	.	0r	.	0r	.	0r	.	0r	.
4D-X\	_ _	.	4D-X\	.	4D-X\	bos	bos	.	.	4A-X\	boś	boś	.	.	4f\	bos	bos	.	.	4dd-X\	boś	boś	.	.	.	.	.	.	.	.	.	.
!	!	!	!	!	!	!	!	!	!	!	!	!	!	!	!	!	!	!	!	!	!	!	!	!	!LO:TX:a:mod=:t=3	!	!LO:TX:a:mod=:t=3	!	!LO:TX:a:mod=:t=3	!	!LO:TX:a:mod=:t=3	!
4F\	.	.	4F\	.	4D-\	ty	Ty	.	.	4A-\	ty	Ty	.	.	4f\	ty	Ty	.	.	4dd-\	ty	Ty	.	.	.	.	.	.	.	.	.	.
4D-\	.	.	4D-\	.	4D-\	sam	sam	.	.	4A-\	sam	sam	.	.	4f\	sam	sam	.	.	4dd-\	sam	sam	.	.	.	.	.	.	.	.	.	.
=106	=106	=106	=106	=106	=106	=106	=106	=106	=106	=106	=106	=106	=106	=106	=106	=106	=106	=106	=106	=106	=106	=106	=106	=106	=106	=106	=106	=106	=106	=106	=106	=106
4r	5 3	.	4r	.	2.G-X\	swię-	swię-	.	.	2.B-\	swię-	swię-	.	.	2.g-X\	swię-	swię-	.	.	2.dd-X\	Swię-	Swię-	.	.	.	.	.	.	.	.	.	.
4GG-X/	_ _	.	4GG-X/	.	.	.	.	.	.	.	.	.	.	.	.	.	.	.	.	.	.	.	.	.	.	.	.	.	.	.	.	.
!LO:SIC:v:s=4G-	!	!	!LO:SIC:v:s=4G-	!	!	!	!	!	!	!	!	!	!	!	!	!	!	!	!	!	!	!	!	!	!	!	!	!	!	!	!	!
4G\	.	.	4G\	.	.	.	.	.	.	.	.	.	.	.	.	.	.	.	.	.	.	.	.	.	.	.	.	.	.	.	.	.
4F\	.	.	4F\	.	4G-\	-ty	-ty	.	.	4B-\	-ty	-ty	.	.	4g-\	-ty	-ty	.	.	4dd-\	-ty	-ty	.	.	.	.	.	.	.	.	.	.
=107	=107	=107	=107	=107	=107	=107	=107	=107	=107	=107	=107	=107	=107	=107	=107	=107	=107	=107	=107	=107	=107	=107	=107	=107	=107	=107	=107	=107	=107	=107	=107	=107
*xywh-#57:2321,5816,4708,752	*	*	*	*	*xywh-#23:2232,4316,5115,795	*	*	*	*	*	*	*	*	*	*	*	*	*	*	*	*	*	*	*	*	*	*	*	*	*	*	*
!LO:PB:g=original	!	!	!	!	!LO:PB:g=original	!	!	!	!	!	!	!	!	!	!	!	!	!	!	!	!	!	!	!	!	!	!	!	!	!	!	!
4E-\	7- n	.	4E-\	.	4E-\	ty	Ty	.	.	4B-\	ty	Ty	.	.	4gn\	ty	Ty	.	.	4dd-X\	ty	Ty	.	.	1r	.	1r	.	1r	.	1r	.
4G\	.	.	4G\	.	4E-\	sam	sam	.	.	4B-\	sam	sam	.	.	4g\	sam	sam	.	.	4dd-\	sam	sam	.	.	.	.	.	.	.	.	.	.
*	*	*	*	*	*	*	*	*	*	*xywh-#17:2333,2147,4821,835	*	*	*	*	*	*	*	*	*	*	*	*	*	*	*	*	*	*	*	*	*	*
!	!	!	!	!	!	!	!	!	!	!LO:PB:g=original	!	!	!	!	!	!	!	!	!	!	!	!	!	!	!	!	!	!	!	!	!	!
4B-\	.	.	4B-\	.	4E-\	ies-	jes-	.	.	4B-\	ies-	jes-	.	.	4g\	ies-	jes-	.	.	4dd-\	ies-	jes-	.	.	.	.	.	.	.	.	.	.
4G\	.	.	4G\	.	4E-\	-teś	-teś	.	.	4B-\	-tes	-teś	.	.	4g\	-tes	-teś	.	.	4dd-\	-teś	-teś	.	.	.	.	.	.	.	.	.	.
=108	=108	=108	=108	=108	=108	=108	=108	=108	=108	=108	=108	=108	=108	=108	=108	=108	=108	=108	=108	=108	=108	=108	=108	=108	=108	=108	=108	=108	=108	=108	=108	=108
*	*	*	*xywh-#28:7627,4654,5004,841	*	*	*	*	*	*	*	*	*	*	*	*	*	*	*	*	*	*	*	*	*	*	*	*xywh-#42:2343,2849,6700,724	*	*	*	*	*
!	!	!	!LO:PB:g=original	!	!	!	!	!	!	!	!	!	!	!	!	!	!	!	!	!	!	!	!	!	!	!	!LO:PB:g=original	!	!	!	!	!
2En;\	7- 5	.	2En;\	.	2En;\	Bo-	Bo-	.	.	2B-;\	Bo-	Bo-	.	.	2g;\	Bo-	Bo-	.	.	2dd-X;\	Bo-	Bo-	.	.	1r;	.	1r;	.	1r;	.	1r;	.
4E\	6 _	.	2r;	.	4E\	-giem	-giem	.	.	4B-\	-giem	-giem	.	.	4g\	-giem	-giem	.	.	4cc\	-giem	-giem	.	.	.	.	.	.	.	.	.	.
4r;	.	.	.	.	4r;	.	.	.	.	4r;	.	.	.	.	4r;	.	.	.	.	4r;	.	.	.	.	.	.	.	.	.	.	.	.
=109	=109	=109	=109	=109	=109	=109	=109	=109	=109	=109	=109	=109	=109	=109	=109	=109	=109	=109	=109	=109	=109	=109	=109	=109	=109	=109	=109	=109	=109	=109	=109	=109
*	*	*	*	*	*	*	*	*	*	*	*	*	*	*	*	*	*	*	*	*	*	*	*	*	*	*	*	*	*xywh-#39:2609,483,6610,855	*	*	*
!	!	!	!	!	!r	!	!	!	!	!r	!	!	!	!	!r	!	!	!	!	!	!	!	!	!	!	!	!	!	!	!	!	!
!	!	!	!	!LO:DY:b:rj	!	!	!	!LO:DY:b	!LO:DY:b	!	!	!	!	!	!	!	!	!LO:DY:b:rj	!LO:DY:b:rj	!	!	!	!LO:DY:t=for	!LO:DY:t=for	!	!	!	!	!	!	!	!
!	!	!	!	!LO:MO:mod=f	!	!	!	!	!	!	!	!	!	!	!	!	!	!	!	!	!	!	!	!	!	!	!	!	!	!	!	!
4FF/	n	f	4FF/	ff	4r	.	.	f	.	4r	.	.	f	.	4r	.	.	f	.	4r	.	.	f	.	4r	.	4r	.	4r	.	4r	.
8AA/L	.	.	8AA/L	.	4F\	boś	Boś	.	f	4An\	boś	Boś	.	f	4f\	boś	Boś	.	f	4cc\	Boś	Boś	.	f	4f/	f	4ff\	f	4a\	f	4cc\	f
8C/J	.	.	8C/J	.	.	.	.	.	.	.	.	.	.	.	.	.	.	.	.	.	.	.	.	.	.	.	.	.	.	.	.	.
4F\	6 4	.	4F\	.	4F\	ty	Ty	.	.	4B-\	t	Ty	.	.	4f\	ty	Ty	.	.	4ddn\	ty	Ty	.	.	4f/	.	4ff\	.	4b-\	.	4dd\	.
4E-\	2	.	4E-\	.	4E-X\	sam	sam	.	.	4c\	sam	sam	.	.	4f\	sam	sam	.	.	4ee-\	sam	sam	.	.	4f/	.	4ff\	.	4cc\	.	4ee-\	.
=110	=110	=110	=110	=110	=110	=110	=110	=110	=110	=110	=110	=110	=110	=110	=110	=110	=110	=110	=110	=110	=110	=110	=110	=110	=110	=110	=110	=110	=110	=110	=110	=110
*	*	*	*	*	*	*	*	*	*	*	*	*	*	*	*	*	*	*	*	*xywh-#5:2402,3891,4808,763	*	*	*	*	*	*	*	*	*	*	*xywh-#35:2506,869,6858,779	*
!	!	!	!	!	!	!	!	!	!	!	!	!	!	!	!	!	!	!	!	!LO:PB:g=original	!	!	!	!	!	!	!	!	!	!	!LO:PB:g=original	!
4D\	6	.	4D\	.	(2D\	swię-	Świę-	.	.	2.d\	swię-	Świę-	.	.	(2f\	swię-	Świę-	.	.	(2ff\	Swię-	Świę-	.	.	2b-\	.	2ff\	.	2dd\	.	2ff\	.
8E-\L	.	.	8E-\L	.	.	.	.	.	.	.	.	.	.	.	.	.	.	.	.	.	.	.	.	.	.	.	.	.	.	.	.	.
8F\J	.	.	8F\J	.	.	.	.	.	.	.	.	.	.	.	.	.	.	.	.	.	.	.	.	.	.	.	.	.	.	.	.	.
4G\	-	.	4G\	.	4G\)	.	.	.	.	.	.	.	.	.	4g\)	.	.	.	.	4b-\)	.	.	.	.	2r	.	2r	.	[2b-\	.	2dd\	.
4D\	.	.	4D\	.	4G\	-ty	-ty	.	.	4d\	-ty	-ty	.	.	4g\	-ty	-ty	.	.	4b-\	-ty	-ty	.	.	.	.	.	.	.	.	.	.
=111	=111	=111	=111	=111	=111	=111	=111	=111	=111	=111	=111	=111	=111	=111	=111	=111	=111	=111	=111	=111	=111	=111	=111	=111	=111	=111	=111	=111	=111	=111	=111	=111
*	*	*	*	*	*	*	*	*	*	*	*	*	*	*	*xywh-#11:2363,4895,4723,795	*	*	*	*	*	*	*	*	*	*	*	*	*	*	*	*	*
!	!	!	!	!	!	!	!	!	!	!	!	!	!	!	!LO:PB:g=original	!	!	!	!	!	!	!	!	!	!	!	!	!	!	!	!	!
4E-\	6 5	.	4E-\	.	4E-\	ty	Ty	.	.	4e-\	ty	Ty	.	.	4g\	ty	Ty	.	.	4cc\	ty	Ty	.	.	1r	.	1r	.	2b-\]	.	2cc\	.
8D\L	.	.	8D\L	.	4E-\	sam	sam	.	.	4d\	sam	sam	.	.	4g\	sam	sam	.	.	4cc\	sam	sam	.	.	.	.	.	.	.	.	.	.
8E-\J	.	.	8E-\J	.	.	.	.	.	.	.	.	.	.	.	.	.	.	.	.	.	.	.	.	.	.	.	.	.	.	.	.	.
*	*	*	*	*	*xywh-#23:2271,4799,4880,828	*	*	*	*	*	*	*	*	*	*	*	*	*	*	*	*	*	*	*	*	*	*	*	*	*	*	*
!	!	!	!	!	!LO:PB:g=original	!	!	!	!	!	!	!	!	!	!	!	!	!	!	!	!	!	!	!	!	!	!LO:TX:a:mod=:t=1	!	!	!	!	!
4F\	6 4	.	4F\	.	4F\	ies-	jes-	.	.	4c\	ies-	jes-	.	.	4a\	ies-	jes-	.	.	4dd\	ies-	jes-	.	.	.	.	.	.	2a\	.	4dd\	.
4F\	7 5	.	4FF/	.	4F\	-tes	-teś	.	.	4c\	-teś	-teś	.	.	4a\	-tes	-teś	.	.	4ee-\	-tes	-teś	.	.	.	.	.	.	.	.	4ee-\	.
=112	=112	=112	=112	=112	=112	=112	=112	=112	=112	=112	=112	=112	=112	=112	=112	=112	=112	=112	=112	=112	=112	=112	=112	=112	=112	=112	=112	=112	=112	=112	=112	=112
*xywh-#57:2349,6339,4632,851	*	*	*	*	*	*	*	*	*	*xywh-#17:2372,2682,4932,867	*	*	*	*	*	*	*	*	*	*	*	*	*	*	*	*	*	*	*	*	*	*
!LO:PB:g=original	!	!	!	!	!	!	!	!	!	!LO:PB:g=original	!	!	!	!	!	!	!	!	!	!	!	!	!	!	!	!	!	!LO:MO:mod=rfz >	!	!LO:MO:null:mod=rfz >	!	!LO:MO:null:mod=rfz >
2.F#X\	7 3	.	2.FF#X/	.	2.F#X\	Bo-	Bo-	.	.	2c\	Bo-	Bo-	.	.	2.a\	Bo-	Bo-	.	.	2ee-\	Bo-	Bo-	.	.	(2cc\	rfz >	[2cc\	rfz	[2a\	.	(2ee-^<\	.
!	!	!	!	!	!	!	!	!	!	!	!	!	!	!	!	!	!	!	!	!	!	!	!	!	!	!	!	!LO:MO:null:mod=]	!	!LO:MO:null:mod=]	!	!LO:MO:null:mod=]
.	6 _	.	.	.	.	.	.	.	.	2c\	-giem	-giem	.	.	.	.	.	.	.	2dd\	-giem	-giem	.	.	4cc\)	]	4cc\]	.	4a\]	.	4dd\)	.
!	!	!	!LO:SIC:v:s=4F#	!	!	!	!	!	!	!	!	!	!	!	!	!	!	!	!	!	!	!	!	!	!	!	!	!	!	!	!	!
4F#\	.	.	4F\	.	4F#\	-giem	-giem	.	.	.	.	.	.	.	4a\	-giem	-giem	.	.	.	.	.	.	.	4r	.	4r	.	4r	.	4r	.
=113	=113	=113	=113	=113	=113	=113	=113	=113	=113	=113	=113	=113	=113	=113	=113	=113	=113	=113	=113	=113	=113	=113	=113	=113	=113	=113	=113	=113	=113	=113	=113	=113
4G\	.	.	4G'\	.	2G\	boś	boś	.	.	2B-\	boś	boś	.	.	2b-\	boś	boś	.	.	2dd\	boś	boś	.	.	1r	.	1r	.	2b-\	.	2.dd\	.
4B-\	.	.	4B-'\	.	.	.	.	.	.	.	.	.	.	.	.	.	.	.	.	.	.	.	.	.	.	.	.	.	.	.	.	.
!	!	!	!	!	!	!	!	!	!	!	!	!	!	!	!	!	!	!	!	!	!	!	!	!	!	!	!LO:TX:a:mod=:t=1	!	!	!	!	!
2Dt\	8 #	.	2D^<t\	.	4D\	ty	Ty	.	.	4A\	ty	Ty	.	.	4f#X\	ty	Ty	.	.	4dd\	ty	Ty	.	.	.	.	.	.	2a\	.	.	.
.	7 _	.	.	.	4D\	sam	sam	.	.	4A\	sam	sam	.	.	4f#\	sam	sam	.	.	4cc\	sam	sam	.	.	.	.	.	.	.	.	4cc\	.
=114	=114	=114	=114	=114	=114	=114	=114	=114	=114	=114	=114	=114	=114	=114	=114	=114	=114	=114	=114	=114	=114	=114	=114	=114	=114	=114	=114	=114	=114	=114	=114	=114
!	!	!	!	!	!	!	!	!	!	!	!	!	!	!	!	!	!	!	!	!	!	!	!	!	!	!LO:MO:null:mod=.	!	!	!	!	!	!
4E-\	5 3	.	4E-'\	.	2E-\	swię-	Świę-	.	.	2G/	swię-	Świę-	.	.	(2g\	swię-	Świę-	.	.	2.b-\	Swię-	Świę-	.	.	2r	p	2r	.	2g\	.	2.b-\	.
4G\	_ _	.	4G'\	.	.	.	.	.	.	.	.	.	.	.	.	.	.	.	.	.	.	.	.	.	.	.	.	.	.	.	.	.
2BB-T/	.	.	2BB-^<T/	.	2BB-/	-ty	-ty	.	.	2B-\	-ty	-ty	.	.	4fn\)	.	.	.	.	.	.	.	.	.	(2B-/	.	[2b-\	.	[2b-\	.	.	.
.	.	.	.	.	.	.	.	.	.	.	.	.	.	.	4f\	-ty	-ty	.	.	4b-\	-ty	-ty	.	.	.	.	.	.	.	.	4dd\	.
=115	=115	=115	=115	=115	=115	=115	=115	=115	=115	=115	=115	=115	=115	=115	=115	=115	=115	=115	=115	=115	=115	=115	=115	=115	=115	=115	=115	=115	=115	=115	=115	=115
*	*	*	*xywh-#28:7666,5215,4958,809	*	*	*	*	*	*	*	*	*	*	*	*	*	*	*	*	*xywh-#5:2324,4322,4886,867	*	*	*	*	*	*	*	*	*	*	*	*
!	!	!	!LO:PB:g=original	!	!	!	!	!	!	!	!	!	!	!	!	!	!	!	!	!	!	!	!	!	!	!	!	!	!	!	!	!
4C/	7_ 3	.	4C/	.	4C/	ty	Ty	.	.	4B-\	ty	Ty	.	.	4e-\	ty	Ty	.	.	4b-\	Ty	Ty	.	.	4B-/)	.	4b-\]	.	4b-\]	.	4ee-\	.
4E-/	x 3	.	4E-/	.	4E-/	sam	sam	.	.	4B-\	sam	sam	.	.	4g\	sam	sam	.	.	4b-\	ſam	ſam	.	.	4B-/	.	4b-\	.	4b-\	.	4gg\	.
4D/	x 3	.	4D/	.	4D/	ies-	jes-	.	.	4B-\	ies-	jes-	.	.	4f\	ies-	jes-	.	.	4b-\	ieſ-	jes-	.	.	4B-/	.	4b-\	.	4b-\	.	4ff\	.
4C/	x 3	.	4C/	.	4C/	-tes	-teś	.	.	4B-\	-tes	-teś	.	.	4e-\	-tes	-teś	.	.	4b-\	-tes	-teś	.	.	4B-/	.	4b-\	.	4b-\	.	4ee-\	.
=116	=116	=116	=116	=116	=116	=116	=116	=116	=116	=116	=116	=116	=116	=116	=116	=116	=116	=116	=116	=116	=116	=116	=116	=116	=116	=116	=116	=116	=116	=116	=116	=116
*	*	*	*	*	*	*	*	*	*	*	*	*	*	*	*xywh-#11:2429,5475,4704,782	*	*	*	*	*	*	*	*	*	*	*	*	*	*	*	*	*
!	!	!	!	!	!	!	!	!	!	!	!	!	!	!	!LO:PB:g=original	!	!	!	!	!	!	!	!	!	!	!	!	!	!	!	!	!
1BB-/;	8 3	.	1BB-/;	.	1BB-/;	Bo-	Bo-	.	.	1B-\;	Bo-	Bo-	.	.	1d\;	Bo-	Bo-	.	.	1b-\;	Bo-	Bo-	.	.	1B-/;	.	1b-\;	.	1b-\;	.	1dd\;	.
=117	=117	=117	=117	=117	=117	=117	=117	=117	=117	=117	=117	=117	=117	=117	=117	=117	=117	=117	=117	=117	=117	=117	=117	=117	=117	=117	=117	=117	=117	=117	=117	=117
*	*	*	*	*	*xywh-#23:2154,5348,4932,874	*	*	*	*	*	*	*	*	*	*	*	*	*	*	*	*	*	*	*	*	*	*	*	*	*	*	*
!	!	!	!	!	!LO:PB:g=original	!	!	!	!	!	!	!	!	!	!	!	!	!	!	!	!	!	!	!	!	!	!	!	!	!	!	!
2BB-/	.	.	2BB-/	.	2BB-/	-giem	-giem	.	.	2B-\	-giem	-giem	.	.	2d\	-giem	-giem	.	.	2b-\	-giem	-giem	.	.	1r	.	1r	.	1r	.	1r	.
!	!	!	!	!	!	!	!	!	!	!	!	!	!	!	!	!	!	!	!	!	!	!	!	!	!	!	!LO:TX:a:mod=:t=1.	!	!	!	!	!
2r	.	.	2r	.	2r	.	.	.	.	2r	.	.	.	.	2r	.	.	.	.	2r	.	.	.	.	.	.	.	.	.	.	.	.
==	==	==	==	==	==	==	==	==	==	==	==	==	==	==	==	==	==	==	==	==	==	==	==	==	==	==	==	==	==	==	==	==
*-	*-	*-	*-	*-	*-	*-	*-	*-	*-	*-	*-	*-	*-	*-	*-	*-	*-	*-	*-	*-	*-	*-	*-	*-	*-	*-	*-	*-	*-	*-	*-	*-
!!!system-decoration: [(g1)][(g2)][(g3)]s9,s10
!!!RDF**kern: > = above
!!!RDF**kern: < = below
!!LO:MO:ori
!!!RDF**dynam: p = po
!!!RDF**dynam: f = fo
!!LO:MO:end
!!!filter-modern: sic -qs | shed -e "s/^(\d+[\/\\]right)/$1yy/I;s/^(\d+[\/\\]left)/$1yy/I" | shed -e "s/:rj/:RJ/L" | shed -k -e "s/[<>]//g"  | shed -e "s/LO:DY:(a|b|rj)/LO:dy:$1/L" | shed -e "s/-//B" | autostem -r | tie -s  | modori -m | humtr -p
!!!URL-youtube: https://www.youtube.com/watch?v=ToiiYl-K_YY&t=271 Chopin University Chamber Choir
!!!ENC: Berenika Jozajtis
!!!END: 2020-03-12
!!!EED: Leszek Kubiak
!!!EEV: 2020-04-07
!!!ENC-modern: Andrzej Borzym
!!!END-modern: 2022-07-21
!!!IIIF: https://repozytorium.nifc.pl/islandora/object/pl-cz%3A32451/datastream/IIIF/view
!!!ENC-iiif: Marta Chmielewska
!!!END-iiif: 2024-12-09
